;FLAVOR:Marlin
;TIME:131
;Filament used: 0.234101m
;Layer height: 0.2
;MINX:150.257
;MINY:150.248
;MINZ:0.2
;MAXX:199.816
;MAXY:199.808
;MAXZ:0.4
;TARGET_MACHINE.NAME:VORON2 350
;Generated with Cura_SteamEngine 5.7.0


; Pre-Processed for Cancel-Object support by preprocess_cancellation v0.2.0
; 1 known objects
EXCLUDE_OBJECT_DEFINE NAME=1st_Layer_Test_v5_stl_1 CENTER=175.016,175.031 POLYGON=[[150.257,150.248],[150.257,199.808],[199.816,199.808],[199.816,150.248]]
M82 ;absolute extrusion mode
; Script based on an original created by tjjfvi (https://github.com/tjjfvi)
; An up-to-date version of the tjjfvi's original script can be found
; here:  https://csi.t6.fyi/
; Note - This script will only work in Cura V4.2 and above!
; --- Global Settings
; layer_height = 0.2
; smooth_spiralized_contours = True
; magic_mesh_surface_mode = normal
; machine_extruder_count = 1
; --- Single Extruder Settings
; speed_z_hop = 10
; retraction_amount = 0.75
; retraction_hop = 0.2
; retraction_hop_enabled = True
; retraction_enable = True
; retraction_speed = 30
; retraction_retract_speed = 30
; retraction_prime_speed = 12
; speed_travel = 150.0
CARTOGRAPHER_MODEL_SELECT NAME="StrucktDbl-Cold"
CARTOGRAPHER_MODEL_LIST
print_start EXTRUDER=245 BED=85.0 
; CHAMBER=0
G92 E0
G92 E0
G1 F1800 E-0.75
;LAYER_COUNT:1
;LAYER:0
M107
G1 F600 Z0.4
;MESH:1st Layer Test v5.stl(1)
EXCLUDE_OBJECT_START NAME=1st_Layer_Test_v5_stl_1
G0 F3600 X175.445 Y189.804 Z0.4
;TYPE:WALL-OUTER
G1 F600 Z0.2
G1 F720 E0
G1 F3000 X175.992 Y189.776 E0.02284
G1 X176.541 Y189.729 E0.04583
G1 X177.038 Y189.669 E0.06671
G1 X177.63 Y189.579 E0.09168
G1 X178.168 Y189.473 E0.11455
G1 X179.265 Y189.193 E0.16177
G1 X180.301 Y188.838 E0.20745
G1 X180.786 Y188.641 E0.22928
G1 X181.29 Y188.42 E0.25223
G1 X181.779 Y188.176 E0.27503
G1 X182.268 Y187.915 E0.29815
G1 X182.741 Y187.64 E0.32097
G1 X183.202 Y187.344 E0.34382
G1 X183.655 Y187.033 E0.36673
G1 X184.096 Y186.702 E0.38973
G1 X184.522 Y186.359 E0.41254
G1 X184.936 Y185.996 E0.43551
G1 X185.338 Y185.622 E0.45841
G1 X185.725 Y185.231 E0.48135
G1 X186.099 Y184.83 E0.50422
G1 X186.453 Y184.408 E0.5272
G1 X186.796 Y183.978 E0.55014
G1 X187.119 Y183.533 E0.57307
G1 X187.427 Y183.079 E0.59595
G1 X187.719 Y182.615 E0.61882
G1 X187.99 Y182.138 E0.6417
G1 X188.247 Y181.649 E0.66474
G1 X188.483 Y181.156 E0.68754
G1 X188.704 Y180.648 E0.71064
G1 X188.925 Y180.08 E0.73607
G1 X189.244 Y179.095 E0.77925
G1 X189.382 Y178.567 E0.80201
G1 X189.504 Y178.027 E0.8251
G1 X189.607 Y177.486 E0.84807
G1 X189.697 Y176.896 E0.87296
G1 X189.792 Y175.851 E0.91673
G1 X189.812 Y175.3 E0.93972
G1 X189.812 Y174.752 E0.96258
G1 X189.792 Y174.205 E0.98541
G1 X189.748 Y173.653 E1.00851
G1 X189.693 Y173.161 E1.02915
G1 X189.606 Y172.565 E1.05427
G1 X189.504 Y172.026 E1.07715
G1 X189.382 Y171.493 E1.09996
G1 X189.244 Y170.96 E1.12292
G1 X189.075 Y170.406 E1.14708
G1 X188.7 Y169.4 E1.19186
G1 X188.483 Y168.9 E1.21459
G1 X188.243 Y168.403 E1.23761
G1 X187.99 Y167.918 E1.26043
G1 X187.715 Y167.437 E1.28354
G1 X187.427 Y166.972 E1.30635
G1 X187.12 Y166.519 E1.32917
G1 X186.792 Y166.074 E1.35223
G1 X186.454 Y165.644 E1.37504
G1 X186.095 Y165.227 E1.39799
G1 X185.724 Y164.824 E1.42084
G1 X185.338 Y164.43 E1.44384
G1 X184.936 Y164.056 E1.46674
G1 X184.522 Y163.697 E1.4896
G1 X184.092 Y163.35 E1.51265
G1 X183.655 Y163.023 E1.53541
G1 X183.202 Y162.708 E1.55842
G1 X182.741 Y162.416 E1.58118
G1 X182.264 Y162.136 E1.60425
G1 X181.779 Y161.876 E1.6272
G1 X181.287 Y161.636 E1.65004
G1 X180.786 Y161.415 E1.67287
G1 X180.301 Y161.218 E1.69471
G1 X179.698 Y161.001 E1.72144
G1 X179.266 Y160.868 E1.74029
G1 X178.704 Y160.714 E1.76459
G1 X178.168 Y160.583 E1.78761
G1 X177.629 Y160.477 E1.81052
G1 X177.038 Y160.383 E1.83548
G1 X176.542 Y160.327 E1.8563
G1 X175.992 Y160.28 E1.87932
G1 X175.445 Y160.252 E1.90216
G1 X174.899 Y160.249 E1.92494
G1 X174.351 Y160.264 E1.9478
G1 X173.803 Y160.3 E1.97071
G1 X173.255 Y160.359 E1.99369
G1 X172.758 Y160.426 E2.01461
G1 X172.171 Y160.528 E2.03946
G1 X171.631 Y160.647 E2.06252
G1 X171.095 Y160.785 E2.08561
G1 X170.575 Y160.938 E2.10822
G1 X170.051 Y161.116 E2.1313
G1 X169.538 Y161.309 E2.15416
G1 X169.034 Y161.522 E2.17698
G1 X168.533 Y161.754 E2.20001
G1 X168.045 Y162.006 E2.22291
G1 X167.563 Y162.275 E2.24594
G1 X167.095 Y162.558 E2.26875
G1 X166.642 Y162.865 E2.29157
G1 X166.196 Y163.185 E2.31447
G1 X165.794 Y163.496 E2.33566
G1 X165.336 Y163.875 E2.36046
G1 X164.927 Y164.241 E2.38335
G1 X164.537 Y164.623 E2.40612
G1 X164.155 Y165.025 E2.42925
G1 X163.792 Y165.435 E2.45209
G1 X163.441 Y165.861 E2.47511
G1 X163.11 Y166.299 E2.49801
G1 X162.791 Y166.748 E2.52098
G1 X162.495 Y167.209 E2.54383
G1 X162.211 Y167.678 E2.5667
G1 X161.948 Y168.162 E2.58967
G1 X161.703 Y168.651 E2.61248
G1 X161.474 Y169.152 E2.63546
G1 X161.265 Y169.661 E2.65841
G1 X161.072 Y170.177 E2.68139
G1 X160.915 Y170.665 E2.70277
G1 X160.737 Y171.281 E2.72951
G1 X160.619 Y171.761 E2.75013
G1 X160.509 Y172.297 E2.77295
G1 X160.406 Y172.888 E2.79797
G1 X160.347 Y173.384 E2.8188
G1 X160.296 Y173.933 E2.8418
G1 X160.264 Y174.48 E2.86465
G1 X160.257 Y175.028 E2.88751
G1 X160.264 Y175.576 E2.91037
G1 X160.296 Y176.123 E2.93322
G1 X160.347 Y176.671 E2.95618
G1 X160.41 Y177.168 E2.97707
G1 X160.509 Y177.759 E3.00206
G1 X160.619 Y178.294 E3.02485
G1 X160.911 Y179.392 E3.07223
G1 X161.072 Y179.878 E3.09359
G1 X161.265 Y180.395 E3.1166
G1 X161.474 Y180.904 E3.13955
G1 X161.703 Y181.405 E3.16253
G1 X161.948 Y181.894 E3.18534
G1 X162.211 Y182.378 E3.20831
G1 X162.495 Y182.847 E3.23118
G1 X162.791 Y183.308 E3.25403
G1 X163.11 Y183.757 E3.277
G1 X163.441 Y184.195 E3.2999
G1 X163.792 Y184.621 E3.32292
G1 X164.155 Y185.031 E3.34576
G1 X164.537 Y185.433 E3.36889
G1 X164.927 Y185.811 E3.39155
G1 X165.337 Y186.182 E3.41461
G1 X165.79 Y186.564 E3.43932
G1 X166.195 Y186.87 E3.46049
G1 X166.642 Y187.191 E3.48345
G1 X167.095 Y187.494 E3.50618
G1 X167.564 Y187.782 E3.52913
G1 X168.044 Y188.049 E3.55204
G1 X168.533 Y188.298 E3.57493
G1 X169.035 Y188.535 E3.59808
G1 X169.534 Y188.747 E3.62069
G1 X170.05 Y188.94 E3.64367
G1 X170.575 Y189.118 E3.66679
G1 X171.095 Y189.271 E3.6894
G1 X171.631 Y189.409 E3.71249
G1 X172.172 Y189.528 E3.73559
G1 X172.758 Y189.634 E3.76043
G1 X173.803 Y189.756 E3.80431
G1 X174.351 Y189.792 E3.82721
G1 X174.899 Y189.807 E3.85008
G1 X175.445 Y189.804 E3.87285
G0 F3600 X175.644 Y189.794
G0 X175.433 Y189.364
;TYPE:WALL-INNER
G1 F3000 X175.962 Y189.337 E3.89494
G1 X176.496 Y189.291 E3.9173
G1 X176.978 Y189.233 E3.93755
G1 X177.554 Y189.145 E3.96185
G1 X178.074 Y189.043 E3.98395
G1 X178.596 Y188.916 E4.00636
G1 X179.139 Y188.771 E4.0298
G1 X179.555 Y188.635 E4.04805
G1 X180.145 Y188.426 E4.07416
G1 X180.615 Y188.235 E4.09532
G1 X181.103 Y188.022 E4.11753
G1 X181.577 Y187.785 E4.13963
G1 X182.054 Y187.531 E4.16217
G1 X182.511 Y187.264 E4.18424
G1 X182.958 Y186.978 E4.20638
G1 X183.398 Y186.675 E4.22866
G1 X183.826 Y186.354 E4.25097
G1 X184.239 Y186.022 E4.27307
G1 X184.641 Y185.67 E4.29536
G1 X185.032 Y185.306 E4.31764
G1 X185.407 Y184.926 E4.33991
G1 X185.769 Y184.538 E4.36204
G1 X186.113 Y184.129 E4.38433
G1 X186.446 Y183.712 E4.40659
G1 X186.759 Y183.28 E4.42884
G1 X187.059 Y182.839 E4.45108
G1 X187.341 Y182.389 E4.47323
G1 X187.604 Y181.927 E4.49541
G1 X187.854 Y181.451 E4.51783
G1 X188.083 Y180.973 E4.53994
G1 X188.297 Y180.48 E4.56235
G1 X188.511 Y179.93 E4.58697
G1 X188.652 Y179.515 E4.60525
G1 X188.821 Y178.974 E4.62889
G1 X188.954 Y178.463 E4.65091
G1 X189.073 Y177.937 E4.6734
G1 X189.173 Y177.412 E4.69569
G1 X189.261 Y176.84 E4.71983
G1 X189.352 Y175.826 E4.76229
G1 X189.372 Y175.292 E4.78458
G1 X189.372 Y174.76 E4.80677
G1 X189.352 Y174.23 E4.82889
G1 X189.31 Y173.695 E4.85127
G1 X189.257 Y173.217 E4.87133
G1 X189.172 Y172.638 E4.89574
G1 X189.073 Y172.116 E4.9179
G1 X188.954 Y171.597 E4.94011
G1 X188.82 Y171.08 E4.96239
G1 X188.657 Y170.544 E4.98575
G1 X188.509 Y170.13 E5.00409
G1 X188.292 Y169.566 E5.02929
G1 X188.083 Y169.084 E5.05121
G1 X187.85 Y168.601 E5.07357
G1 X187.604 Y168.129 E5.09577
G1 X187.337 Y167.662 E5.11821
G1 X187.057 Y167.212 E5.14031
G1 X186.76 Y166.773 E5.16242
G1 X186.442 Y166.34 E5.18483
G1 X186.114 Y165.924 E5.20692
G1 X185.766 Y165.519 E5.22919
G1 X185.405 Y165.127 E5.25142
G1 X185.031 Y164.745 E5.27372
G1 X184.642 Y164.384 E5.29585
G1 X184.24 Y164.035 E5.31805
G1 X183.822 Y163.698 E5.34045
G1 X183.397 Y163.38 E5.36259
G1 X182.958 Y163.075 E5.38488
G1 X182.512 Y162.792 E5.40691
G1 X182.048 Y162.52 E5.42935
G1 X181.579 Y162.268 E5.45155
G1 X181.101 Y162.035 E5.47373
G1 X180.614 Y161.82 E5.49593
G1 X180.143 Y161.629 E5.51713
G1 X179.558 Y161.419 E5.54306
G1 X179.143 Y161.29 E5.56118
G1 X178.594 Y161.14 E5.58492
G1 X178.074 Y161.013 E5.60725
G1 X177.552 Y160.91 E5.62944
G1 X176.979 Y160.819 E5.65364
G1 X176.499 Y160.765 E5.67378
G1 X175.962 Y160.719 E5.69626
G1 X175.433 Y160.692 E5.71835
G1 X174.904 Y160.689 E5.74042
G1 X174.371 Y160.704 E5.76266
G1 X173.841 Y160.738 E5.78481
G1 X173.308 Y160.796 E5.80717
G1 X172.825 Y160.861 E5.8275
G1 X172.256 Y160.96 E5.85158
G1 X171.733 Y161.075 E5.87392
G1 X171.212 Y161.209 E5.89636
G1 X170.708 Y161.358 E5.91828
G1 X170.199 Y161.53 E5.94069
G1 X169.701 Y161.718 E5.96289
G1 X169.212 Y161.924 E5.98502
G1 X168.727 Y162.149 E6.00732
G1 X168.253 Y162.394 E6.02957
G1 X167.784 Y162.655 E6.05196
G1 X167.333 Y162.928 E6.07395
G1 X166.894 Y163.226 E6.09608
G1 X166.459 Y163.538 E6.1184
G1 X166.069 Y163.84 E6.13898
G1 X165.623 Y164.209 E6.16312
G1 X165.228 Y164.562 E6.18521
G1 X164.851 Y164.932 E6.20725
G1 X164.479 Y165.323 E6.22975
G1 X164.126 Y165.721 E6.25194
G1 X163.787 Y166.134 E6.27423
G1 X163.465 Y166.559 E6.29647
G1 X163.156 Y166.994 E6.31872
G1 X162.869 Y167.441 E6.34088
G1 X162.593 Y167.897 E6.36311
G1 X162.338 Y168.366 E6.38537
G1 X162.1 Y168.841 E6.40753
G1 X161.878 Y169.327 E6.42982
G1 X161.675 Y169.822 E6.45213
G1 X161.488 Y170.322 E6.4744
G1 X161.336 Y170.793 E6.49504
G1 X161.162 Y171.395 E6.52118
G1 X161.048 Y171.858 E6.54106
G1 X160.941 Y172.379 E6.56325
G1 X160.842 Y172.952 E6.5875
G1 X160.785 Y173.43 E6.60758
G1 X160.735 Y173.966 E6.63003
G1 X160.704 Y174.496 E6.65217
G1 X160.697 Y175.028 E6.67436
G1 X160.704 Y175.56 E6.69656
G1 X160.735 Y176.09 E6.7187
G1 X160.785 Y176.623 E6.74103
G1 X160.846 Y177.104 E6.76125
G1 X160.941 Y177.679 E6.78556
G1 X161.048 Y178.196 E6.80758
G1 X161.332 Y179.264 E6.85367
G1 X161.487 Y179.732 E6.87423
G1 X161.675 Y180.234 E6.89659
G1 X161.878 Y180.729 E6.9189
G1 X162.1 Y181.215 E6.94119
G1 X162.338 Y181.69 E6.96335
G1 X162.593 Y182.159 E6.98561
G1 X162.869 Y182.615 E7.00784
G1 X163.156 Y183.062 E7.03
G1 X163.465 Y183.497 E7.05225
G1 X163.787 Y183.922 E7.07449
G1 X164.126 Y184.335 E7.09678
G1 X164.479 Y184.733 E7.11897
G1 X164.85 Y185.123 E7.14142
G1 X165.228 Y185.49 E7.16339
G1 X165.627 Y185.85 E7.1858
G1 X166.065 Y186.22 E7.20972
G1 X166.456 Y186.516 E7.23017
G1 X166.892 Y186.829 E7.25256
G1 X167.333 Y187.124 E7.27469
G1 X167.786 Y187.402 E7.29686
G1 X168.251 Y187.661 E7.31906
G1 X168.727 Y187.903 E7.34133
G1 X169.215 Y188.133 E7.36383
G1 X169.697 Y188.338 E7.38567
G1 X170.198 Y188.526 E7.40799
G1 X170.708 Y188.698 E7.43044
G1 X171.212 Y188.847 E7.45236
G1 X171.733 Y188.981 E7.4748
G1 X172.258 Y189.096 E7.49721
G1 X172.825 Y189.199 E7.52125
G1 X173.841 Y189.318 E7.56391
G1 X174.371 Y189.352 E7.58607
G1 X174.904 Y189.367 E7.6083
G1 X175.433 Y189.364 E7.63037
G0 F3600 X175.417 Y188.939
;TYPE:SKIN
G1 F3000 X175.928 Y188.911 E7.6522
G1 X176.453 Y188.868 E7.67467
G1 X176.869 Y188.817 E7.69255
G1 X177.477 Y188.726 E7.71877
G1 X177.978 Y188.628 E7.74055
G1 X179.047 Y188.356 E7.7876
G1 X179.995 Y188.025 E7.83043
G1 X180.92 Y187.635 E7.87325
G1 X181.851 Y187.158 E7.91787
G1 X182.289 Y186.9 E7.93956
G1 X182.723 Y186.62 E7.96159
G1 X183.149 Y186.328 E7.98362
G1 X183.565 Y186.018 E8.00575
G1 X183.963 Y185.695 E8.02761
G1 X184.357 Y185.352 E8.0499
G1 X184.735 Y184.998 E8.07199
G1 X185.101 Y184.627 E8.09422
G1 X185.451 Y184.254 E8.11603
G1 X185.785 Y183.857 E8.13817
G1 X186.108 Y183.451 E8.1603
G1 X186.411 Y183.034 E8.18228
G1 X186.703 Y182.605 E8.20442
G1 X186.974 Y182.168 E8.22635
G1 X187.23 Y181.719 E8.2484
G1 X187.474 Y181.259 E8.27061
G1 X187.695 Y180.794 E8.29257
G1 X187.903 Y180.314 E8.31489
G1 X188.131 Y179.724 E8.34187
G1 X188.411 Y178.853 E8.38089
G1 X188.537 Y178.358 E8.40268
G1 X188.655 Y177.845 E8.42514
G1 X188.754 Y177.337 E8.44721
G1 X188.848 Y176.737 E8.47312
G1 X188.927 Y175.798 E8.51332
G1 X188.947 Y175.279 E8.53547
G1 X188.947 Y174.765 E8.5574
G1 X188.927 Y174.253 E8.57925
G1 X188.888 Y173.734 E8.60145
G1 X188.832 Y173.27 E8.62139
G1 X188.757 Y172.757 E8.6435
G1 X188.655 Y172.198 E8.66774
G1 X188.541 Y171.694 E8.68978
G1 X188.407 Y171.19 E8.71203
G1 X188.25 Y170.672 E8.73512
G1 X187.899 Y169.72 E8.7784
G1 X187.688 Y169.236 E8.80092
G1 X187.229 Y168.331 E8.84421
G1 X186.97 Y167.876 E8.86654
G1 X186.699 Y167.439 E8.88847
G1 X186.412 Y167.015 E8.91031
G1 X185.785 Y166.191 E8.95448
G1 X185.448 Y165.798 E8.97656
G1 X185.097 Y165.42 E8.99857
G1 X184.731 Y165.05 E9.02077
G1 X184.352 Y164.695 E9.04292
G1 X183.967 Y164.357 E9.06477
G1 X183.558 Y164.03 E9.08711
G1 X183.148 Y163.723 E9.10896
G1 X182.719 Y163.424 E9.13126
G1 X182.291 Y163.153 E9.15287
G1 X181.838 Y162.889 E9.17524
G1 X181.38 Y162.645 E9.19737
G1 X180.922 Y162.417 E9.2192
G1 X180.018 Y162.034 E9.26108
G1 X179.424 Y161.822 E9.28798
G1 X179.02 Y161.696 E9.30603
G1 X178.431 Y161.534 E9.33209
G1 X177.979 Y161.424 E9.35193
G1 X177.472 Y161.326 E9.37396
G1 X176.871 Y161.228 E9.39993
G1 X175.927 Y161.141 E9.44037
G1 X175.417 Y161.113 E9.46216
G1 X174.391 Y161.125 E9.50593
G1 X173.881 Y161.161 E9.52774
G1 X172.937 Y161.271 E9.56828
G1 X172.34 Y161.373 E9.59411
G1 X171.833 Y161.487 E9.61628
G1 X171.321 Y161.617 E9.63881
G1 X170.836 Y161.763 E9.66041
G1 X170.34 Y161.929 E9.68273
G1 X169.856 Y162.11 E9.70477
G1 X169.356 Y162.322 E9.72793
G1 X168.912 Y162.531 E9.74887
G1 X168.451 Y162.767 E9.77096
G1 X167.998 Y163.023 E9.79315
G1 X167.558 Y163.286 E9.81502
G1 X166.708 Y163.876 E9.85916
G1 X165.899 Y164.532 E9.90358
G1 X165.514 Y164.873 E9.92552
G1 X165.153 Y165.23 E9.94718
G1 X164.79 Y165.609 E9.96956
G1 X164.448 Y165.999 E9.99169
G1 X164.117 Y166.396 E10.01374
G1 X163.504 Y167.23 E10.05789
G1 X162.959 Y168.109 E10.10201
G1 X162.483 Y169.022 E10.14593
G1 X162.267 Y169.498 E10.16822
G1 X162.07 Y169.979 E10.1904
G1 X161.885 Y170.463 E10.2125
G1 X161.554 Y171.558 E10.26129
G1 X161.46 Y171.953 E10.27861
G1 X161.358 Y172.458 E10.30059
G1 X161.263 Y173.008 E10.3244
G1 X161.157 Y173.999 E10.36691
G1 X161.125 Y174.512 E10.38884
G1 X161.125 Y175.54 E10.43269
G1 X161.157 Y176.054 E10.45466
G1 X161.204 Y176.575 E10.47697
G1 X161.259 Y176.991 E10.49487
G1 X161.358 Y177.599 E10.52115
G1 X161.46 Y178.096 E10.54279
G1 X161.736 Y179.139 E10.58881
G1 X161.885 Y179.588 E10.60899
G1 X162.07 Y180.077 E10.63129
G1 X162.267 Y180.558 E10.65346
G1 X162.484 Y181.031 E10.67566
G1 X162.712 Y181.491 E10.69756
G1 X162.96 Y181.943 E10.71955
G1 X163.227 Y182.388 E10.74169
G1 X163.507 Y182.821 E10.76368
G1 X163.806 Y183.243 E10.78575
G1 X164.117 Y183.656 E10.8078
G1 X164.448 Y184.057 E10.82998
G1 X164.79 Y184.443 E10.85198
G1 X165.153 Y184.826 E10.87449
G1 X165.514 Y185.179 E10.89602
G1 X165.904 Y185.53 E10.9184
G1 X166.324 Y185.883 E10.94181
G1 X167.134 Y186.479 E10.9847
G1 X167.562 Y186.766 E11.00669
G1 X167.998 Y187.033 E11.02849
G1 X168.446 Y187.285 E11.05042
G1 X169.389 Y187.742 E11.09512
G1 X169.853 Y187.943 E11.11669
G1 X170.336 Y188.124 E11.13869
G1 X170.836 Y188.293 E11.1612
G1 X171.325 Y188.435 E11.18293
G1 X171.833 Y188.569 E11.20534
G1 X172.34 Y188.679 E11.22747
G1 X172.886 Y188.777 E11.25113
G1 X173.881 Y188.895 E11.29387
G1 X174.391 Y188.927 E11.31567
G1 X174.907 Y188.942 E11.33769
G1 X175.417 Y188.939 E11.35944
G1 F1800 E10.60944
G0 F3600 X175.432 Y189.243
G0 X175.655 Y189.216
G0 X175.958 Y189.161
G0 X178.033 Y188.868
G0 X179.568 Y188.446
G0 X181.503 Y187.626
G0 X183.3 Y186.528
G0 X184.903 Y185.186
G0 X186.313 Y183.594
G0 X187.447 Y181.846
G0 X188.32 Y179.935
G0 X188.9 Y177.91
G0 X189.175 Y175.805
G0 X189.134 Y173.699
