;FLAVOR:Marlin
;TIME:1431
;Filament used: 0.815069m
;Layer height: 0.2
;MINX:197.648
;MINY:255.092
;MINZ:0.2
;MAXX:257.018
;MAXY:282.697
;MAXZ:10
;TARGET_MACHINE.NAME:VORON2 350
;ZOFFSETPROCESSED
;Generated with Cura_SteamEngine 5.7.0


; Pre-Processed for Cancel-Object support by preprocess_cancellation v0.2.0
; 1 known objects
EXCLUDE_OBJECT_DEFINE NAME=Body3_stl CENTER=227.283,268.264 POLYGON=[[202.223,259.704],[202.223,278.08],[252.436,278.08],[252.436,259.704]]
M82 ;absolute extrusion mode
; Script based on an original created by tjjfvi (https://github.com/tjjfvi)
; An up-to-date version of the tjjfvi's original script can be found
; here:  https://csi.t6.fyi/
; Note - This script will only work in Cura V4.2 and above!
; --- Global Settings
; layer_height = 0.2
; smooth_spiralized_contours = True
; magic_mesh_surface_mode = normal
; machine_extruder_count = 1
; --- Single Extruder Settings
; speed_z_hop = 10
; retraction_amount = 0.75
; retraction_hop = 0.2
; retraction_hop_enabled = True
; retraction_enable = True
; retraction_speed = 30
; retraction_retract_speed = 30
; retraction_prime_speed = 12
; speed_travel = 100.0
;CARTOGRAPHER_MODEL_SELECT NAME="StrucktDbl-Cold"
CARTOGRAPHER_MODEL_LIST
print_start EXTRUDER=255.0 BED=120 
; CHAMBER=36
G92 E0
G92 E0
G1 F1800 E-0.75
;LAYER_COUNT:49
;LAYER:0
M107
G1 F600 Z0.38 ;adjusted by z offset
G92 Z0.4 ;consider this the original z before offset
G0 F2400 X203.961 Y256.287 Z0.4
;TYPE:SKIRT
G1 F600 Z0.2
G1 F720 E0
G1 F1200 X204.457 Y255.914 E0.04284
G1 X204.849 Y255.686 E0.07415
G1 X205.285 Y255.485 E0.10729
G1 X206.11 Y255.221 E0.16709
G1 X206.587 Y255.138 E0.20052
G1 X207.204 Y255.093 E0.24323
G1 X215.176 Y255.108 E0.79358
G1 X215.421 Y255.133 E0.81058
G1 X216.196 Y255.293 E0.86521
G1 X216.455 Y255.378 E0.88403
G1 X217.084 Y255.643 E0.93115
G1 X217.653 Y255.971 E0.97649
G1 X218.153 Y256.343 E1.01951
G1 X218.274 Y256.452 E1.03076
G1 X218.732 Y256.945 E1.07721
G1 X219.043 Y257.363 E1.11318
G1 X219.297 Y257.792 E1.1476
G1 X219.553 Y258.377 E1.19168
G1 X219.762 Y259.088 E1.24284
G1 X219.866 Y259.704 E1.28597
G1 X219.887 Y259.988 E1.30563
G1 X219.892 Y261.769 E1.42858
G1 X223.216 Y265.093 E1.75311
G1 X231.445 Y265.093 E2.3212
G1 X234.77 Y261.765 E2.64597
G1 X234.782 Y259.81 E2.78094
G1 X234.807 Y259.565 E2.79794
G1 X234.967 Y258.79 E2.85257
G1 X235.052 Y258.531 E2.87139
G1 X235.317 Y257.902 E2.91851
G1 X235.645 Y257.333 E2.96385
G1 X236.017 Y256.833 E3.00687
G1 X236.126 Y256.712 E3.01811
G1 X236.619 Y256.254 E3.06457
G1 X237.037 Y255.943 E3.10054
G1 X237.466 Y255.689 E3.13496
G1 X238.051 Y255.433 E3.17904
G1 X238.762 Y255.224 E3.2302
G1 X239.378 Y255.12 E3.27333
G1 X239.608 Y255.101 E3.28926
G1 X247.458 Y255.092 E3.83119
G1 X248.287 Y255.173 E3.88869
G1 X248.89 Y255.315 E3.93146
G1 X249.083 Y255.377 E3.94545
G1 X249.712 Y255.642 E3.99257
G1 X250.281 Y255.97 E4.03791
G1 X250.781 Y256.342 E4.08094
G1 X250.902 Y256.451 E4.09218
G1 X251.431 Y257.039 E4.14678
G1 X251.871 Y257.689 E4.20097
G1 X252.1 Y258.15 E4.23651
G1 X252.266 Y258.578 E4.2682
G1 X253.256 Y261.845 E4.50387
G1 X256.412 Y267.323 E4.94031
G1 X256.694 Y267.962 E4.98853
G1 X256.895 Y268.626 E5.03643
G1 X256.948 Y268.898 E5.05556
G1 X257.018 Y269.705 E5.11148
G1 X256.999 Y270.221 E5.14713
G1 X256.958 Y270.544 E5.1696
G1 X255.679 Y276.171 E5.56797
G1 X255.462 Y276.762 E5.61144
G1 X255.151 Y277.368 E5.65846
G1 X254.881 Y277.779 E5.69241
G1 X252.513 Y280.862 E5.96078
G1 X252.131 Y281.262 E5.99897
G1 X251.532 Y281.761 E6.05279
G1 X251.343 Y281.887 E6.06847
G1 X250.847 Y282.16 E6.10755
G1 X250.175 Y282.439 E6.15779
G1 X249.652 Y282.581 E6.1952
G1 X249.172 Y282.658 E6.22876
G1 X248.618 Y282.697 E6.2671
G1 X205.672 Y282.677 E9.2319
G1 X205.223 Y282.617 E9.26317
G1 X204.691 Y282.498 E9.30081
G1 X204.356 Y282.393 E9.32504
G1 X203.9 Y282.202 E9.35917
G1 X203.364 Y281.912 E9.40125
G1 X202.901 Y281.589 E9.44022
G1 X202.508 Y281.244 E9.47632
G1 X202.02 Y280.706 E9.52647
G1 X199.732 Y277.707 E9.78688
G1 X199.343 Y277.065 E9.8387
G1 X199.097 Y276.507 E9.8808
G1 X198.89 Y275.853 E9.92815
G1 X197.732 Y270.689 E10.29351
G1 X197.648 Y269.846 E10.35199
G1 X197.671 Y269.233 E10.39434
G1 X197.747 Y268.73 E10.42946
G1 X197.861 Y268.269 E10.46224
G1 X198.066 Y267.705 E10.50367
G1 X198.309 Y267.208 E10.54186
G1 X201.415 Y261.813 E10.97163
G1 X202.37 Y258.64 E11.20038
G1 X202.616 Y258.033 E11.2456
G1 X202.934 Y257.451 E11.29138
G1 X203.149 Y257.142 E11.31737
G1 X203.494 Y256.736 E11.35415
G1 X203.961 Y256.287 E11.39887
G0 F2400 X204.429 Y256.774
G1 F1200 X204.801 Y256.495 E11.43098
G1 X205.132 Y256.299 E11.45753
G1 X205.568 Y256.098 E11.49068
G1 X206.226 Y255.886 E11.5384
G1 X206.703 Y255.803 E11.57183
G1 X207.203 Y255.768 E11.60643
G1 X215.107 Y255.78 E12.15209
G1 X215.352 Y255.805 E12.16909
G1 X215.991 Y255.936 E12.21412
G1 X216.198 Y256.002 E12.22912
G1 X216.751 Y256.23 E12.27041
G1 X217.252 Y256.514 E12.31017
G1 X217.701 Y256.845 E12.34868
G1 X217.822 Y256.954 E12.35992
G1 X218.19 Y257.348 E12.39714
G1 X218.501 Y257.766 E12.43311
G1 X218.714 Y258.132 E12.46234
G1 X218.907 Y258.572 E12.49551
G1 X219.097 Y259.203 E12.54101
G1 X219.193 Y259.76 E12.58003
G1 X219.212 Y259.99 E12.59596
G1 X219.218 Y262.049 E12.7381
G1 X222.937 Y265.768 E13.10119
G1 X231.724 Y265.768 E13.70781
G1 X235.444 Y262.045 E14.07114
G1 X235.454 Y259.879 E14.22067
G1 X235.479 Y259.634 E14.23768
G1 X235.61 Y258.995 E14.28271
G1 X235.676 Y258.788 E14.29771
G1 X235.904 Y258.235 E14.339
G1 X236.188 Y257.734 E14.37876
G1 X236.519 Y257.285 E14.41727
G1 X236.628 Y257.164 E14.42851
G1 X237.022 Y256.796 E14.46573
G1 X237.44 Y256.485 E14.5017
G1 X237.806 Y256.272 E14.53093
G1 X238.246 Y256.079 E14.5641
G1 X238.877 Y255.889 E14.60959
G1 X239.434 Y255.793 E14.64861
G1 X239.664 Y255.774 E14.66455
G1 X247.459 Y255.767 E15.20268
G1 X248.132 Y255.83 E15.24934
G1 X248.735 Y255.972 E15.29211
G1 X248.826 Y256.001 E15.2987
G1 X249.379 Y256.229 E15.34
G1 X249.88 Y256.513 E15.37976
G1 X250.329 Y256.844 E15.41826
G1 X250.45 Y256.953 E15.42951
G1 X250.875 Y257.422 E15.4732
G1 X251.268 Y257.993 E15.52106
G1 X251.472 Y258.397 E15.5523
G1 X251.62 Y258.774 E15.58026
G1 X252.632 Y262.115 E15.82126
G1 X255.827 Y267.66 E16.26306
G1 X256.049 Y268.161 E16.30089
G1 X256.232 Y268.755 E16.3438
G1 X256.285 Y269.027 E16.36293
G1 X256.343 Y269.684 E16.40846
G1 X256.329 Y270.136 E16.43968
G1 X256.288 Y270.459 E16.46216
G1 X255.045 Y275.938 E16.85001
G1 X254.828 Y276.529 E16.89348
G1 X254.587 Y276.997 E16.92982
G1 X254.317 Y277.408 E16.96377
G1 X252.02 Y280.401 E17.22423
G1 X251.698 Y280.745 E17.25676
G1 X251.15 Y281.204 E17.3061
G1 X251.013 Y281.298 E17.31757
G1 X250.583 Y281.539 E17.3516
G1 X249.994 Y281.789 E17.39578
G1 X249.541 Y281.915 E17.42824
G1 X249.123 Y281.985 E17.4575
G1 X248.618 Y282.022 E17.49245
G1 X205.757 Y282.007 E20.45139
G1 X205.37 Y281.958 E20.47832
G1 X204.838 Y281.839 E20.51595
G1 X204.617 Y281.77 E20.53193
G1 X204.161 Y281.579 E20.56606
G1 X203.688 Y281.32 E20.60329
G1 X203.292 Y281.039 E20.63681
G1 X202.957 Y280.74 E20.66781
G1 X202.557 Y280.297 E20.70902
G1 X200.269 Y277.298 E20.96943
G1 X199.959 Y276.789 E21.01057
G1 X199.74 Y276.301 E21.0475
G1 X199.549 Y275.705 E21.0907
G1 X198.391 Y270.541 E21.45606
G1 X198.32 Y269.783 E21.50862
G1 X198.339 Y269.331 E21.53985
G1 X198.404 Y268.886 E21.57089
G1 X198.497 Y268.495 E21.59864
G1 X198.673 Y268 E21.63491
G1 X198.894 Y267.545 E21.66983
G1 X202.04 Y262.081 E22.1051
G1 X202.996 Y258.894 E22.3348
G1 X203.242 Y258.287 E22.38001
G1 X203.492 Y257.831 E22.41591
G1 X203.666 Y257.576 E22.43723
G1 X203.962 Y257.223 E22.46903
G1 X204.429 Y256.774 E22.51375
G0 F2400 X204.897 Y257.261
G1 F1200 X205.152 Y257.072 E22.53567
G1 X205.415 Y256.912 E22.55692
G1 X205.851 Y256.711 E22.59006
G1 X206.347 Y256.55 E22.62606
G1 X206.752 Y256.476 E22.65448
G1 X207.202 Y256.443 E22.68563
G1 X215.038 Y256.452 E23.2266
G1 X215.283 Y256.477 E23.2436
G1 X215.793 Y256.581 E23.27953
G1 X215.946 Y256.628 E23.29058
G1 X216.423 Y256.82 E23.32608
G1 X216.855 Y257.06 E23.36019
G1 X217.249 Y257.347 E23.39385
G1 X217.37 Y257.456 E23.40509
G1 X217.652 Y257.756 E23.43351
G1 X217.921 Y258.111 E23.46426
G1 X218.099 Y258.41 E23.48828
G1 X218.262 Y258.771 E23.51563
G1 X218.432 Y259.321 E23.55537
G1 X218.52 Y259.816 E23.59008
G1 X218.539 Y260.046 E23.60601
G1 X218.543 Y262.328 E23.76355
G1 X222.658 Y266.443 E24.1653
G1 X232.003 Y266.443 E24.81044
G1 X236.118 Y262.325 E25.21234
G1 X236.126 Y259.948 E25.37644
G1 X236.151 Y259.703 E25.39344
G1 X236.255 Y259.193 E25.42937
G1 X236.302 Y259.04 E25.44042
G1 X236.494 Y258.563 E25.47592
G1 X236.734 Y258.131 E25.51003
G1 X237.021 Y257.737 E25.54369
G1 X237.13 Y257.616 E25.55493
G1 X237.43 Y257.334 E25.58335
G1 X237.785 Y257.065 E25.6141
G1 X238.084 Y256.887 E25.63812
G1 X238.445 Y256.724 E25.66547
G1 X238.995 Y256.554 E25.70521
G1 X239.49 Y256.466 E25.73992
G1 X239.72 Y256.447 E25.75585
G1 X247.459 Y256.442 E26.29012
G1 X248.066 Y256.502 E26.33223
G1 X248.574 Y256.627 E26.36834
G1 X249.051 Y256.819 E26.40384
G1 X249.483 Y257.059 E26.43796
G1 X249.877 Y257.346 E26.47161
G1 X249.998 Y257.455 E26.48285
G1 X250.373 Y257.873 E26.52162
G1 X250.667 Y258.301 E26.55747
G1 X250.845 Y258.648 E26.58439
G1 X250.974 Y258.97 E26.60834
G1 X252.008 Y262.385 E26.85466
G1 X255.242 Y267.997 E27.30181
G1 X255.43 Y268.43 E27.3344
G1 X255.569 Y268.884 E27.36718
G1 X255.622 Y269.156 E27.38631
G1 X255.668 Y269.668 E27.4218
G1 X255.659 Y270.051 E27.44825
G1 X255.618 Y270.374 E27.47073
G1 X254.411 Y275.705 E27.84807
G1 X254.194 Y276.296 E27.89153
G1 X253.99 Y276.682 E27.92167
G1 X253.781 Y276.997 E27.94777
G1 X251.521 Y279.946 E28.20427
G1 X251.263 Y280.229 E28.2307
G1 X250.768 Y280.647 E28.27543
G1 X250.631 Y280.741 E28.2869
G1 X250.313 Y280.92 E28.31209
G1 X249.808 Y281.14 E28.35012
G1 X249.424 Y281.25 E28.3777
G1 X249.071 Y281.312 E28.40244
G1 X248.618 Y281.347 E28.4338
G1 X205.836 Y281.337 E31.38728
G1 X205.515 Y281.299 E31.4096
G1 X205.029 Y281.192 E31.44395
G1 X204.873 Y281.146 E31.45518
G1 X204.481 Y280.985 E31.48444
G1 X204.074 Y280.766 E31.51634
G1 X203.737 Y280.531 E31.54471
G1 X203.456 Y280.285 E31.57049
G1 X203.094 Y279.888 E31.60758
G1 X200.806 Y276.889 E31.86799
G1 X200.538 Y276.442 E31.90397
G1 X200.382 Y276.093 E31.93036
G1 X200.208 Y275.557 E31.96927
G1 X199.063 Y270.473 E32.32903
G1 X198.995 Y269.804 E32.37546
G1 X199.007 Y269.425 E32.40163
G1 X199.061 Y269.042 E32.42834
G1 X199.154 Y268.651 E32.45608
G1 X199.307 Y268.231 E32.48694
G1 X199.479 Y267.882 E32.5138
G1 X202.665 Y262.349 E32.95457
G1 X203.643 Y259.088 E33.18961
G1 X203.836 Y258.608 E33.22532
G1 X204.054 Y258.205 E33.25695
G1 X204.187 Y258.005 E33.27353
G1 X204.43 Y257.71 E33.29992
G1 X204.897 Y257.261 E33.34464
G0 F2400 X205.305 Y257.799
G1 F1200 X205.503 Y257.649 E33.36179
G1 X205.766 Y257.489 E33.38304
G1 X206.066 Y257.351 E33.40584
G1 X206.476 Y257.213 E33.43571
G1 X206.805 Y257.149 E33.45884
G1 X207.201 Y257.118 E33.48627
G1 X214.969 Y257.124 E34.02253
G1 X215.214 Y257.149 E34.03954
G1 X215.604 Y257.229 E34.06702
G1 X215.7 Y257.257 E34.07392
G1 X216.102 Y257.414 E34.10372
G1 X216.462 Y257.609 E34.13198
G1 X216.797 Y257.849 E34.16043
G1 X216.918 Y257.958 E34.17167
G1 X217.158 Y258.216 E34.196
G1 X217.345 Y258.463 E34.21739
G1 X217.488 Y258.697 E34.23632
G1 X217.619 Y258.976 E34.2576
G1 X217.768 Y259.443 E34.29144
G1 X217.847 Y259.872 E34.32155
G1 X217.866 Y260.102 E34.33749
G1 X217.868 Y262.607 E34.51042
G1 X222.379 Y267.118 E34.95083
G1 X232.282 Y267.118 E35.63449
G1 X236.792 Y262.605 E36.07495
G1 X236.798 Y260.017 E36.25362
G1 X236.823 Y259.772 E36.27062
G1 X236.903 Y259.382 E36.29811
G1 X236.931 Y259.286 E36.30501
G1 X237.088 Y258.884 E36.3348
G1 X237.283 Y258.524 E36.36307
G1 X237.523 Y258.189 E36.39152
G1 X237.632 Y258.068 E36.40276
G1 X237.89 Y257.828 E36.42709
G1 X238.137 Y257.641 E36.44847
G1 X238.371 Y257.498 E36.46741
G1 X238.65 Y257.367 E36.48868
G1 X239.117 Y257.218 E36.52252
G1 X239.546 Y257.139 E36.55264
G1 X239.776 Y257.12 E36.56857
G1 X247.459 Y257.117 E37.09897
G1 X247.914 Y257.16 E37.13052
G1 X248.328 Y257.256 E37.15986
G1 X248.73 Y257.413 E37.18965
G1 X249.09 Y257.608 E37.21792
G1 X249.425 Y257.848 E37.24637
G1 X249.546 Y257.957 E37.25761
G1 X249.821 Y258.262 E37.28596
G1 X250.069 Y258.614 E37.31569
G1 X250.218 Y258.899 E37.33789
G1 X250.347 Y259.221 E37.36184
G1 X251.385 Y262.656 E37.60957
G1 X254.625 Y268.271 E38.0571
G1 X254.786 Y268.633 E38.08446
G1 X254.906 Y269.013 E38.11197
G1 X254.959 Y269.285 E38.1311
G1 X254.993 Y269.659 E38.15702
G1 X254.989 Y269.966 E38.17822
G1 X254.948 Y270.289 E38.2007
G1 X253.775 Y275.479 E38.56803
G1 X253.595 Y275.985 E38.6051
G1 X253.426 Y276.311 E38.63045
G1 X253.245 Y276.586 E38.65318
G1 X250.985 Y279.535 E38.90968
G1 X250.767 Y279.771 E38.93186
G1 X250.379 Y280.096 E38.9668
G1 X250.294 Y280.156 E38.97398
G1 X250.037 Y280.304 E38.99445
G1 X249.615 Y280.493 E39.02637
G1 X249.307 Y280.585 E39.04857
G1 X248.954 Y280.647 E39.07331
G1 X248.618 Y280.672 E39.09657
G1 X205.905 Y280.665 E42.04529
G1 X205.66 Y280.64 E42.06229
G1 X205.174 Y280.533 E42.09664
G1 X205.075 Y280.502 E42.1038
G1 X204.795 Y280.387 E42.1247
G1 X204.454 Y280.208 E42.15129
G1 X204.182 Y280.023 E42.174
G1 X203.901 Y279.777 E42.19978
G1 X203.631 Y279.479 E42.22754
G1 X201.343 Y276.48 E42.48795
G1 X201.151 Y276.159 E42.51377
G1 X201.023 Y275.882 E42.53484
G1 X200.867 Y275.409 E42.56922
G1 X199.722 Y270.325 E42.92899
G1 X199.667 Y269.741 E42.96949
G1 X199.676 Y269.514 E42.98517
G1 X199.718 Y269.198 E43.00718
G1 X199.811 Y268.807 E43.03492
G1 X199.914 Y268.527 E43.05552
G1 X200.064 Y268.219 E43.07917
G1 X203.29 Y262.617 E43.52545
G1 X204.29 Y259.282 E43.76581
G1 X204.43 Y258.929 E43.79203
G1 X204.648 Y258.526 E43.82366
G1 X204.743 Y258.388 E43.83522
G1 X204.948 Y258.143 E43.85728
G1 X205.305 Y257.799 E43.8915
G0 F2400 X205.713 Y258.337
G1 F1200 X205.911 Y258.187 E43.90865
G1 X206.109 Y258.07 E43.92453
G1 X206.289 Y257.988 E43.93818
G1 X206.615 Y257.874 E43.96202
G1 X206.863 Y257.822 E43.97952
G1 X207.201 Y257.793 E44.00294
G1 X214.9 Y257.796 E44.53444
G1 X215.145 Y257.821 E44.55144
G1 X215.463 Y257.889 E44.57389
G1 X215.781 Y258.008 E44.59733
G1 X216.141 Y258.203 E44.6256
G1 X216.345 Y258.351 E44.643
G1 X216.466 Y258.46 E44.65424
G1 X216.626 Y258.632 E44.67046
G1 X216.769 Y258.815 E44.68649
G1 X216.912 Y259.049 E44.70542
G1 X217.003 Y259.252 E44.72078
G1 X217.123 Y259.642 E44.74895
G1 X217.175 Y259.937 E44.76963
G1 X217.191 Y260.102 E44.78107
G1 X217.193 Y262.886 E44.97327
G1 X222.1 Y267.793 E45.45234
G1 X232.561 Y267.793 E46.17453
G1 X237.467 Y262.884 E46.65365
G1 X237.47 Y260.086 E46.84681
G1 X237.495 Y259.841 E46.86381
G1 X237.563 Y259.523 E46.88626
G1 X237.682 Y259.205 E46.9097
G1 X237.877 Y258.845 E46.93797
G1 X238.025 Y258.641 E46.95537
G1 X238.134 Y258.52 E46.96661
G1 X238.306 Y258.36 E46.98283
G1 X238.489 Y258.217 E46.99886
G1 X238.723 Y258.074 E47.01779
G1 X238.926 Y257.983 E47.03315
G1 X239.316 Y257.863 E47.06132
G1 X239.611 Y257.811 E47.082
G1 X239.776 Y257.795 E47.09344
G1 X247.459 Y257.792 E47.62384
G1 X247.773 Y257.82 E47.64561
G1 X248.091 Y257.888 E47.66806
G1 X248.409 Y258.007 E47.6915
G1 X248.769 Y258.202 E47.71976
G1 X248.973 Y258.35 E47.73716
G1 X249.094 Y258.459 E47.7484
G1 X249.274 Y258.657 E47.76688
G1 X249.475 Y258.935 E47.79056
G1 X249.591 Y259.15 E47.80742
G1 X249.72 Y259.472 E47.83137
G1 X250.761 Y262.926 E48.08041
G1 X254.011 Y268.552 E48.52896
G1 X254.144 Y268.842 E48.55098
G1 X254.245 Y269.152 E48.57349
G1 X254.287 Y269.352 E48.5876
G1 X254.318 Y269.662 E48.60911
G1 X254.319 Y269.881 E48.62422
G1 X254.278 Y270.204 E48.6467
G1 X253.136 Y275.261 E49.00461
G1 X252.993 Y275.68 E49.03517
G1 X252.86 Y275.943 E49.05552
G1 X252.709 Y276.175 E49.07463
G1 X250.449 Y279.124 E49.33112
G1 X250.276 Y279.307 E49.34851
G1 X249.95 Y279.575 E49.37764
G1 X249.754 Y279.691 E49.39336
G1 X249.412 Y279.849 E49.41937
G1 X249.184 Y279.921 E49.43588
G1 X248.899 Y279.974 E49.45589
G1 X248.618 Y279.997 E49.47535
G1 X205.974 Y279.993 E52.41931
G1 X205.729 Y279.968 E52.43631
G1 X205.325 Y279.875 E52.46493
G1 X205.109 Y279.789 E52.48098
