;FLAVOR:Marlin
;TIME:1709
;Filament used: 2.29457m
;Layer height: 0.2
;MINX:214.247
;MINY:127.206
;MINZ:0.2
;MAXX:310.948
;MAXY:223.914
;MAXZ:5.6
;TARGET_MACHINE.NAME:VORON2 350
;Generated with Cura_SteamEngine 5.7.0


; Pre-Processed for Cancel-Object support by preprocess_cancellation v0.2.0
; 1 known objects
EXCLUDE_OBJECT_DEFINE NAME=Body1_stl CENTER=262.482,175.497 POLYGON=[[214.247,127.206],[214.247,223.914],[310.948,223.914],[310.948,127.206]]
M82 ;absolute extrusion mode
; Script based on an original created by tjjfvi (https://github.com/tjjfvi)
; An up-to-date version of the tjjfvi's original script can be found
; here:  https://csi.t6.fyi/
; Note - This script will only work in Cura V4.2 and above!
; --- Global Settings
; layer_height = 0.2
; smooth_spiralized_contours = True
; magic_mesh_surface_mode = normal
; machine_extruder_count = 1
; --- Single Extruder Settings
; speed_z_hop = 10.0
; retraction_amount = 0.75
; retraction_hop = 0.2
; retraction_hop_enabled = False
; retraction_enable = True
; retraction_speed = 30
; retraction_retract_speed = 30
; retraction_prime_speed = 12
; speed_travel = 300.0
;CARTOGRAPHER_MODEL_SELECT NAME="StrucktDbl-Cold"
CARTOGRAPHER_MODEL_LIST
print_start EXTRUDER=245.0 BED=75.0 
; CHAMBER=0
G92 E0
G92 E0
G1 F1800 E-0.75
;LAYER_COUNT:28
;LAYER:0
M107
;MESH:Body1.stl
EXCLUDE_OBJECT_START NAME=Body1_stl
G0 F18000 X263.336 Y221.901 Z0.2
;TYPE:WALL-INNER
G1 F720 E0
G1 F1200 X264.897 Y221.847 E0.06546
G1 X266.465 Y221.742 E0.13132
G1 X268.017 Y221.587 E0.19668
G1 X269.522 Y221.386 E0.26031
G1 X271.113 Y221.114 E0.32795
G1 X272.643 Y220.804 E0.39338
G1 X274.168 Y220.44 E0.45908
G1 X275.677 Y220.021 E0.52471
G1 X277.137 Y219.568 E0.58877
G1 X278.646 Y219.037 E0.65581
G1 X280.109 Y218.47 E0.72157
G1 X281.539 Y217.858 E0.78675
G1 X282.966 Y217.19 E0.85279
G1 X284.357 Y216.481 E0.91821
G1 X285.722 Y215.725 E0.98361
G1 X287.072 Y214.918 E1.04952
G1 X288.377 Y214.078 E1.11456
G1 X289.668 Y213.179 E1.18049
G1 X290.921 Y212.243 E1.24603
G1 X292.148 Y211.265 E1.31179
G1 X293.336 Y210.252 E1.37722
G1 X294.483 Y209.194 E1.44261
G1 X295.601 Y208.099 E1.50819
G1 X296.683 Y206.963 E1.57394
G1 X297.725 Y205.796 E1.6395
G1 X298.725 Y204.591 E1.70513
G1 X299.672 Y203.373 E1.76978
G1 X300.603 Y202.089 E1.83625
G1 X301.479 Y200.79 E1.90191
G1 X302.307 Y199.466 E1.96735
G1 X303.09 Y198.11 E2.03297
G1 X303.824 Y196.736 E2.09826
G1 X304.518 Y195.328 E2.16404
G1 X305.162 Y193.901 E2.22965
G1 X305.758 Y192.456 E2.29516
G1 X306.301 Y190.987 E2.36079
G1 X306.798 Y189.508 E2.42618
G1 X307.243 Y188.005 E2.49187
G1 X307.639 Y186.488 E2.55757
G1 X307.984 Y184.961 E2.62318
G1 X308.275 Y183.426 E2.68865
G1 X308.523 Y181.832 E2.75626
G1 X308.721 Y180.152 E2.82715
G1 X308.848 Y178.62 E2.89157
G1 X308.922 Y177.033 E2.95815
G1 X308.949 Y175.466 E3.02383
G1 X308.918 Y173.905 E3.08926
G1 X308.837 Y172.339 E3.15498
G1 X308.701 Y170.789 E3.22018
G1 X308.539 Y169.453 E3.27658
G1 X308.301 Y167.851 E3.34446
G1 X308.015 Y166.314 E3.40997
G1 X307.678 Y164.791 E3.47534
G1 X307.286 Y163.27 E3.54117
G1 X306.848 Y161.773 E3.60653
G1 X306.36 Y160.29 E3.67196
G1 X305.754 Y158.655 E3.74504
G1 X305.228 Y157.372 E3.80315
G1 X304.513 Y155.779 E3.87632
G1 X303.824 Y154.38 E3.94168
G1 X303.087 Y153 E4.00724
G1 X302.3 Y151.648 E4.0728
G1 X301.474 Y150.324 E4.1382
G1 X300.697 Y149.168 E4.19657
G1 X299.67 Y147.742 E4.27021
G1 X298.718 Y146.518 E4.3352
G1 X297.722 Y145.321 E4.40046
G1 X296.679 Y144.153 E4.46608
G1 X295.596 Y143.016 E4.53188
G1 X294.479 Y141.918 E4.59753
G1 X293.333 Y140.865 E4.66275
G1 X292.139 Y139.846 E4.72853
G1 X290.917 Y138.869 E4.7941
G1 X289.662 Y137.935 E4.85966
G1 X288.374 Y137.042 E4.92534
G1 X287.067 Y136.197 E4.99056
G1 X285.718 Y135.391 E5.05642
G1 X284.353 Y134.635 E5.12181
G1 X282.962 Y133.925 E5.18726
G1 X281.539 Y133.258 E5.25312
G1 X280.105 Y132.646 E5.31846
G1 X278.647 Y132.08 E5.384
G1 X277.137 Y131.552 E5.45104
G1 X275.677 Y131.095 E5.51515
G1 X274.168 Y130.68 E5.58074
G1 X272.641 Y130.312 E5.64657
G1 X271.113 Y130.002 E5.71191
G1 X269.522 Y129.73 E5.77955
G1 X268.017 Y129.529 E5.84318
G1 X266.461 Y129.374 E5.90871
G1 X264.899 Y129.269 E5.97432
G1 X263.332 Y129.218 E6.04002
G1 X261.778 Y129.218 E6.10515
G1 X260.213 Y129.273 E6.17077
G1 X258.651 Y129.381 E6.23639
G1 X257.111 Y129.54 E6.30127
G1 X255.59 Y129.746 E6.36559
G1 X253.996 Y130.017 E6.43335
G1 X252.473 Y130.331 E6.49852
G1 X250.914 Y130.707 E6.56573
G1 X249.412 Y131.126 E6.63108
G1 X248.006 Y131.571 E6.69288
G1 X246.476 Y132.107 E6.76082
G1 X245.011 Y132.68 E6.82674
G1 X243.58 Y133.297 E6.89205
G1 X242.137 Y133.976 E6.95889
G1 X240.77 Y134.677 E7.02327
G1 X239.405 Y135.437 E7.08874
G1 X238.054 Y136.248 E7.15477
G1 X236.748 Y137.093 E7.21996
G1 X235.461 Y137.988 E7.28566
G1 X234.21 Y138.926 E7.35119
G1 X232.991 Y139.904 E7.41668
G1 X231.797 Y140.927 E7.48257
G1 X230.654 Y141.981 E7.54773
G1 X229.533 Y143.083 E7.61361
G1 X228.456 Y144.218 E7.67918
G1 X227.421 Y145.385 E7.74455
G1 X226.424 Y146.591 E7.81012
G1 X225.462 Y147.833 E7.87596
G1 X224.548 Y149.099 E7.9414
G1 X223.647 Y150.446 E8.00931
G1 X222.849 Y151.725 E8.07249
G1 X222.066 Y153.082 E8.13814
G1 X221.334 Y154.457 E8.20342
G1 X220.643 Y155.869 E8.2693
G1 X220.004 Y157.292 E8.33468
G1 X219.411 Y158.746 E8.40048
G1 X218.867 Y160.212 E8.46601
G1 X218.379 Y161.678 E8.53076
G1 X217.929 Y163.197 E8.59716
G1 X217.538 Y164.711 E8.66269
G1 X217.201 Y166.24 E8.7283
G1 X216.91 Y167.78 E8.79398
G1 X216.665 Y169.374 E8.86157
G1 X216.487 Y170.876 E8.92495
G1 X216.359 Y172.415 E8.98967
G1 X216.278 Y173.997 E9.05606
G1 X216.255 Y175.562 E9.12165
G1 X216.282 Y177.119 E9.18691
G1 X216.359 Y178.701 E9.25329
G1 X216.491 Y180.238 E9.31794
G1 X216.67 Y181.748 E9.38166
G1 X216.91 Y183.341 E9.44917
G1 X217.2 Y184.879 E9.51476
G1 X217.542 Y186.407 E9.58038
G1 X217.934 Y187.92 E9.64588
G1 X218.376 Y189.429 E9.71178
G1 X218.864 Y190.896 E9.77657
G1 X219.41 Y192.374 E9.8426
G1 X220.004 Y193.824 E9.90827
G1 X220.643 Y195.246 E9.9736
G1 X221.338 Y196.659 E10.03959
G1 X222.067 Y198.035 E10.10485
G1 X222.853 Y199.396 E10.17071
G1 X223.647 Y200.674 E10.23377
G1 X224.551 Y202.019 E10.30168
G1 X225.467 Y203.288 E10.36727
G1 X226.424 Y204.529 E10.43294
G1 X227.424 Y205.734 E10.49857
G1 X228.46 Y206.902 E10.564
G1 X229.537 Y208.037 E10.62957
G1 X230.654 Y209.135 E10.69521
G1 X231.802 Y210.194 E10.76066
G1 X232.992 Y211.217 E10.82643
G1 X234.208 Y212.193 E10.89177
G1 X235.46 Y213.127 E10.95723
G1 X236.749 Y214.024 E11.02304
G1 X238.056 Y214.873 E11.08836
G1 X239.404 Y215.682 E11.15424
G1 X240.774 Y216.443 E11.21992
G1 X242.138 Y217.144 E11.28419
G1 X243.58 Y217.823 E11.35098
G1 X245.01 Y218.439 E11.41624
G1 X246.476 Y219.009 E11.48215
G1 X247.946 Y219.529 E11.5475
G1 X249.437 Y219.998 E11.613
G1 X251.005 Y220.432 E11.68118
G1 X252.472 Y220.784 E11.74441
G1 X254.002 Y221.099 E11.80987
G1 X255.592 Y221.374 E11.87749
G1 X257.111 Y221.58 E11.94173
G1 X258.649 Y221.739 E12.00653
G1 X260.215 Y221.843 E12.0723
G1 X261.78 Y221.898 E12.13793
G1 X263.336 Y221.901 E12.20314
G0 F18000 X263.343 Y222.321
G1 F1200 X264.918 Y222.267 E12.26918
G1 X266.5 Y222.161 E12.33563
G1 X268.066 Y222.004 E12.40158
G1 X269.586 Y221.801 E12.46585
G1 X271.191 Y221.527 E12.53409
G1 X272.733 Y221.214 E12.60002
G1 X274.273 Y220.847 E12.66637
G1 X275.795 Y220.424 E12.73257
G1 X277.269 Y219.967 E12.79724
G1 X278.791 Y219.431 E12.86487
G1 X280.267 Y218.859 E12.93121
G1 X281.71 Y218.241 E12.99699
G1 X283.151 Y217.568 E13.06364
G1 X284.555 Y216.852 E13.12969
G1 X285.932 Y216.089 E13.19566
G1 X287.294 Y215.275 E13.26216
G1 X288.611 Y214.427 E13.3278
G1 X289.913 Y213.52 E13.3943
G1 X291.178 Y212.576 E13.46045
G1 X292.415 Y211.589 E13.52677
G1 X293.614 Y210.566 E13.59282
G1 X294.772 Y209.498 E13.65884
G1 X295.9 Y208.394 E13.72498
G1 X296.992 Y207.247 E13.79135
G1 X298.044 Y206.07 E13.85751
G1 X299.053 Y204.854 E13.92373
G1 X300.008 Y203.625 E13.98895
G1 X300.947 Y202.33 E14.05599
G1 X301.831 Y201.019 E14.12225
G1 X302.667 Y199.682 E14.18834
G1 X303.457 Y198.314 E14.25454
G1 X304.197 Y196.928 E14.32038
G1 X304.898 Y195.507 E14.38679
G1 X305.547 Y194.067 E14.45298
G1 X306.149 Y192.609 E14.51908
G1 X306.697 Y191.126 E14.58534
G1 X307.198 Y189.635 E14.65126
G1 X307.648 Y188.118 E14.71757
G1 X308.047 Y186.587 E14.78387
G1 X308.395 Y185.046 E14.85008
G1 X308.689 Y183.497 E14.91615
G1 X308.939 Y181.889 E14.98435
G1 X309.139 Y180.194 E15.05588
G1 X309.268 Y178.648 E15.12089
G1 X309.342 Y177.046 E15.1881
G1 X309.369 Y175.466 E15.25432
G1 X309.338 Y173.89 E15.32038
G1 X309.256 Y172.31 E15.38669
G1 X309.119 Y170.746 E15.45248
G1 X308.955 Y169.397 E15.50943
G1 X308.716 Y167.782 E15.57785
G1 X308.427 Y166.23 E15.64401
G1 X308.086 Y164.693 E15.70999
G1 X307.691 Y163.159 E15.77637
G1 X307.249 Y161.648 E15.84235
G1 X306.756 Y160.151 E15.9084
G1 X306.145 Y158.502 E15.98209
G1 X305.614 Y157.207 E16.04075
G1 X304.893 Y155.6 E16.11456
G1 X304.197 Y154.188 E16.18054
G1 X303.454 Y152.796 E16.24666
G1 X302.66 Y151.431 E16.31284
G1 X301.826 Y150.096 E16.37881
G1 X301.041 Y148.928 E16.43778
G1 X300.007 Y147.49 E16.51201
G1 X299.045 Y146.255 E16.57761
G1 X298.04 Y145.046 E16.6435
G1 X296.988 Y143.869 E16.70965
G1 X295.895 Y142.721 E16.77608
G1 X294.768 Y141.614 E16.84229
G1 X293.611 Y140.551 E16.90813
G1 X292.406 Y139.522 E16.97454
G1 X291.174 Y138.536 E17.04067
G1 X289.907 Y137.594 E17.10683
G1 X288.607 Y136.693 E17.17312
G1 X287.289 Y135.84 E17.23891
G1 X285.928 Y135.027 E17.30535
G1 X284.551 Y134.264 E17.37132
G1 X283.146 Y133.548 E17.43741
G1 X281.71 Y132.875 E17.50387
G1 X280.263 Y132.257 E17.56981
G1 X278.792 Y131.686 E17.63593
G1 X277.269 Y131.153 E17.70356
G1 X275.795 Y130.692 E17.76828
G1 X274.273 Y130.273 E17.83444
G1 X272.732 Y129.902 E17.90086
G1 X271.191 Y129.589 E17.96676
G1 X269.586 Y129.315 E18.03499
G1 X268.066 Y129.112 E18.09926
G1 X266.496 Y128.955 E18.16538
G1 X264.919 Y128.849 E18.23162
G1 X263.339 Y128.798 E18.29787
G1 X261.771 Y128.798 E18.36358
G1 X260.191 Y128.853 E18.42984
G1 X258.615 Y128.963 E18.49604
G1 X257.061 Y129.123 E18.56151
G1 X255.527 Y129.331 E18.62639
G1 X253.919 Y129.605 E18.69475
G1 X252.382 Y129.921 E18.7605
G1 X250.808 Y130.301 E18.82836
G1 X249.292 Y130.723 E18.89431
G1 X247.873 Y131.173 E18.9567
G1 X246.33 Y131.713 E19.02521
G1 X244.852 Y132.292 E19.09173
G1 X243.408 Y132.914 E19.15762
G1 X241.952 Y133.599 E19.22505
G1 X240.572 Y134.307 E19.29005
G1 X239.194 Y135.074 E19.35614
G1 X237.832 Y135.892 E19.42272
G1 X236.514 Y136.745 E19.48852
G1 X235.215 Y137.648 E19.55482
G1 X233.952 Y138.594 E19.62095
G1 X232.723 Y139.581 E19.68701
G1 X231.518 Y140.613 E19.75349
G1 X230.365 Y141.677 E19.81924
G1 X229.234 Y142.789 E19.88571
G1 X228.146 Y143.934 E19.9519
G1 X227.102 Y145.112 E20.01787
G1 X226.096 Y146.329 E20.08404
G1 X225.125 Y147.582 E20.15047
G1 X224.203 Y148.86 E20.21651
G1 X223.295 Y150.218 E20.28497
G1 X222.489 Y151.509 E20.34876
G1 X221.699 Y152.878 E20.41499
G1 X220.96 Y154.266 E20.48089
G1 X220.263 Y155.691 E20.54737
G1 X219.618 Y157.126 E20.61331
G1 X219.019 Y158.593 E20.67971
G1 X218.471 Y160.073 E20.74585
G1 X217.978 Y161.552 E20.81118
G1 X217.525 Y163.085 E20.87818
G1 X217.13 Y164.613 E20.94432
G1 X216.789 Y166.155 E21.0105
G1 X216.496 Y167.71 E21.07681
G1 X216.249 Y169.318 E21.14499
G1 X216.069 Y170.834 E21.20897
G1 X215.94 Y172.387 E21.27428
G1 X215.858 Y173.983 E21.34125
G1 X215.835 Y175.562 E21.40743
G1 X215.862 Y177.133 E21.47327
G1 X215.94 Y178.729 E21.54024
G1 X216.073 Y180.281 E21.60552
G1 X216.253 Y181.804 E21.66979
G1 X216.496 Y183.412 E21.73794
G1 X216.789 Y184.964 E21.80413
G1 X217.133 Y186.505 E21.8703
G1 X217.529 Y188.032 E21.93641
G1 X217.975 Y189.554 E22.00288
G1 X218.467 Y191.036 E22.06832
G1 X219.019 Y192.526 E22.13491
G1 X219.618 Y193.989 E22.20116
G1 X220.263 Y195.424 E22.26709
G1 X220.964 Y196.85 E22.33368
G1 X221.699 Y198.239 E22.39954
G1 X222.493 Y199.612 E22.46601
G1 X223.295 Y200.902 E22.52966
G1 X224.206 Y202.259 E22.59816
G1 X225.13 Y203.539 E22.66432
G1 X226.096 Y204.791 E22.73059
G1 X227.106 Y206.008 E22.79687
G1 X228.15 Y207.186 E22.86283
G1 X229.238 Y208.331 E22.92902
G1 X230.365 Y209.439 E22.99526
G1 X231.523 Y210.507 E23.06127
G1 X232.724 Y211.54 E23.12766
G1 X233.951 Y212.525 E23.1936
G1 X235.214 Y213.468 E23.25966
G1 X236.515 Y214.372 E23.32605
G1 X237.833 Y215.229 E23.39193
G1 X239.194 Y216.046 E23.45846
G1 X240.576 Y216.813 E23.5247
G1 X241.952 Y217.521 E23.58955
G1 X243.408 Y218.206 E23.65698
G1 X244.851 Y218.828 E23.72283
G1 X246.33 Y219.403 E23.78933
G1 X247.813 Y219.927 E23.85525
G1 X249.318 Y220.4 E23.92136
G1 X250.899 Y220.839 E23.99012
G1 X252.381 Y221.194 E24.05399
G1 X253.924 Y221.512 E24.12001
G1 X255.528 Y221.79 E24.18823
G1 X257.061 Y221.997 E24.25306
G1 X258.613 Y222.157 E24.31844
G1 X260.194 Y222.263 E24.38485
G1 X261.772 Y222.318 E24.45102
G1 X263.343 Y222.321 E24.51686
G0 F18000 X263.349 Y222.741
G1 F1200 X264.94 Y222.686 E24.58357
G1 X266.535 Y222.58 E24.65056
G1 X268.114 Y222.422 E24.71707
G1 X269.649 Y222.217 E24.78197
G1 X271.268 Y221.94 E24.8508
G1 X272.824 Y221.624 E24.91734
G1 X274.378 Y221.253 E24.98429
G1 X275.914 Y220.827 E25.05109
G1 X277.401 Y220.365 E25.11635
G1 X278.937 Y219.825 E25.18458
G1 X280.426 Y219.248 E25.2515
G1 X281.882 Y218.624 E25.31789
G1 X283.335 Y217.945 E25.3851
G1 X284.752 Y217.223 E25.45175
G1 X286.141 Y216.453 E25.51831
G1 X287.515 Y215.632 E25.58538
G1 X288.845 Y214.776 E25.65167
G1 X290.159 Y213.86 E25.71879
G1 X291.435 Y212.909 E25.78549
G1 X292.683 Y211.913 E25.8524
G1 X293.893 Y210.88 E25.91907
G1 X295.061 Y209.803 E25.98566
G1 X296.199 Y208.689 E26.05239
G1 X297.3 Y207.532 E26.11933
G1 X298.362 Y206.344 E26.18611
G1 X299.38 Y205.117 E26.25292
G1 X300.344 Y203.877 E26.31874
G1 X301.291 Y202.57 E26.38638
G1 X302.183 Y201.248 E26.45322
G1 X303.027 Y199.899 E26.5199
G1 X303.825 Y198.518 E26.58674
G1 X304.571 Y197.12 E26.65315
G1 X305.278 Y195.687 E26.72012
G1 X305.933 Y194.234 E26.78691
G1 X306.541 Y192.762 E26.85365
G1 X307.093 Y191.266 E26.92048
G1 X307.599 Y189.762 E26.98698
G1 X308.053 Y188.23 E27.05394
G1 X308.455 Y186.687 E27.12076
G1 X308.807 Y185.131 E27.18762
G1 X309.103 Y183.568 E27.25429
G1 X309.355 Y181.946 E27.32308
G1 X309.557 Y180.236 E27.39524
G1 X309.687 Y178.675 E27.46088
G1 X309.762 Y177.059 E27.52868
G1 X309.789 Y175.465 E27.59549
G1 X309.758 Y173.875 E27.66213
G1 X309.675 Y172.28 E27.72907
G1 X309.537 Y170.702 E27.79545
G1 X309.371 Y169.341 E27.85291
G1 X309.13 Y167.712 E27.92192
G1 X308.838 Y166.146 E27.98868
G1 X308.495 Y164.595 E28.05525
G1 X308.096 Y163.048 E28.1222
G1 X307.65 Y161.523 E28.18879
G1 X307.153 Y160.012 E28.25545
G1 X306.536 Y158.349 E28.32978
G1 X306 Y157.041 E28.38902
G1 X305.273 Y155.421 E28.46343
G1 X304.571 Y153.996 E28.53001
G1 X303.821 Y152.591 E28.59675
G1 X303.02 Y151.214 E28.66351
G1 X302.179 Y149.867 E28.73006
G1 X301.386 Y148.688 E28.78961
G1 X300.343 Y147.238 E28.86446
G1 X299.373 Y145.992 E28.93063
G1 X298.358 Y144.772 E28.99714
G1 X297.296 Y143.584 E29.06392
G1 X296.194 Y142.427 E29.13088
G1 X295.057 Y141.309 E29.19771
G1 X293.89 Y140.236 E29.26415
G1 X292.674 Y139.198 E29.33115
G1 X291.431 Y138.203 E29.39787
G1 X290.152 Y137.252 E29.46466
G1 X288.841 Y136.344 E29.5315
G1 X287.511 Y135.484 E29.59787
G1 X286.137 Y134.663 E29.66495
G1 X284.748 Y133.893 E29.7315
G1 X283.331 Y133.171 E29.79815
G1 X281.882 Y132.492 E29.86521
G1 X280.422 Y131.868 E29.93175
G1 X278.937 Y131.292 E29.9985
G1 X277.401 Y130.755 E30.06669
G1 X275.914 Y130.289 E30.132
G1 X274.378 Y129.867 E30.19875
G1 X272.823 Y129.492 E30.26579
G1 X271.268 Y129.176 E30.33229
G1 X269.649 Y128.899 E30.40112
G1 X268.114 Y128.694 E30.46602
G1 X266.531 Y128.536 E30.53269
G1 X264.94 Y128.43 E30.59951
G1 X263.345 Y128.378 E30.66639
G1 X261.763 Y128.378 E30.73269
G1 X260.169 Y128.434 E30.79953
G1 X258.579 Y128.544 E30.86633
G1 X257.011 Y128.706 E30.93239
G1 X255.464 Y128.915 E30.99781
G1 X253.841 Y129.192 E31.06681
G1 X252.29 Y129.511 E31.13317
G1 X250.703 Y129.894 E31.20158
G1 X249.172 Y130.32 E31.26818
G1 X247.74 Y130.774 E31.33114
G1 X246.184 Y131.319 E31.40023
G1 X244.692 Y131.903 E31.46738
G1 X243.235 Y132.531 E31.53387
