;FLAVOR:Marlin
;TIME:6782
;Filament used: 20.1018m
;Layer height: 0.2
;MINX:53.82
;MINY:65.052
;MINZ:0.2
;MAXX:164.285
;MAXY:240.519
;MAXZ:14.8
;TARGET_MACHINE.NAME:VORON2 350
;Generated with Cura_SteamEngine 5.7.0


; Pre-Processed for Cancel-Object support by preprocess_cancellation v0.2.0
; 1 known objects
EXCLUDE_OBJECT_DEFINE NAME=Body1_stl CENTER=112.377,151.456 POLYGON=[[53.82,65.052],[53.82,239.652],[163.42,239.652],[163.42,65.052]]
M82 ;absolute extrusion mode
; Script based on an original created by tjjfvi (https://github.com/tjjfvi)
; An up-to-date version of the tjjfvi's original script can be found
; here:  https://csi.t6.fyi/
; Note - This script will only work in Cura V4.2 and above!
; --- Global Settings
; layer_height = 0.2
; smooth_spiralized_contours = True
; magic_mesh_surface_mode = normal
; machine_extruder_count = 1
; --- Single Extruder Settings
; speed_z_hop = 10.0
; retraction_amount = 0.75
; retraction_hop = 0.2
; retraction_hop_enabled = False
; retraction_enable = True
; retraction_speed = 30
; retraction_retract_speed = 30
; retraction_prime_speed = 12
; speed_travel = 300.0
CARTOGRAPHER_MODEL_SELECT NAME="StrucktDbl-Cold"
CARTOGRAPHER_MODEL_LIST
print_start EXTRUDER=245.0 BED=75.0 
; CHAMBER=0
G92 E0
G92 E0
G1 F1800 E-0.75
;LAYER_COUNT:74
;LAYER:0
M107
;MESH:Body1.stl
EXCLUDE_OBJECT_START NAME=Body1_stl
G0 F18000 X83.763 Y126.893 Z0.2
;TYPE:WALL-INNER
G1 F720 E0
G1 F1200 X83.568 Y126.897 E0.00817
G1 X83.063 Y126.857 E0.0294
G1 X82.912 Y126.825 E0.03587
G1 X82.399 Y126.683 E0.05818
G1 X82.287 Y126.638 E0.06324
G1 X81.903 Y126.447 E0.08121
G1 X81.809 Y126.391 E0.0858
G1 X81.456 Y126.143 E0.10388
G1 X81.359 Y126.061 E0.1092
G1 X81 Y125.702 E0.13048
G1 X80.917 Y125.604 E0.13586
G1 X80.656 Y125.228 E0.15504
G1 X80.575 Y125.077 E0.16222
G1 X80.377 Y124.646 E0.1821
G1 X80.322 Y124.48 E0.18943
G1 X80.229 Y124.118 E0.20509
G1 X80.205 Y123.968 E0.21145
G1 X80.163 Y123.528 E0.22998
G1 X80.162 Y123.436 E0.23383
G1 X80.204 Y122.932 E0.25503
G1 X80.234 Y122.775 E0.26173
G1 X80.372 Y122.274 E0.2835
G1 X80.609 Y121.754 E0.30745
G1 X80.7 Y121.606 E0.31473
G1 X80.911 Y121.303 E0.33021
G1 X80.996 Y121.202 E0.33574
G1 X81.359 Y120.839 E0.35725
G1 X81.456 Y120.757 E0.36258
G1 X81.818 Y120.503 E0.38111
G1 X81.931 Y120.438 E0.38657
G1 X82.38 Y120.229 E0.40733
G1 X82.568 Y120.164 E0.41566
G1 X82.955 Y120.063 E0.43243
G1 X83.042 Y120.048 E0.43613
G1 X83.548 Y120.004 E0.45741
G1 X83.681 Y120.002 E0.46299
G1 X84.156 Y120.045 E0.48297
G1 X84.286 Y120.066 E0.48849
G1 X84.806 Y120.21 E0.5111
G1 X84.952 Y120.268 E0.51769
G1 X85.336 Y120.459 E0.53566
G1 X85.736 Y120.729 E0.55589
G1 X85.846 Y120.817 E0.56179
G1 X86.207 Y121.175 E0.5831
G1 X86.304 Y121.286 E0.58927
G1 X86.549 Y121.636 E0.60718
G1 X86.629 Y121.773 E0.61383
G1 X86.833 Y122.215 E0.63423
G1 X86.891 Y122.377 E0.64144
G1 X86.98 Y122.715 E0.65609
G1 X87.012 Y122.876 E0.66296
G1 X87.058 Y123.318 E0.68159
G1 X87.062 Y123.476 E0.68821
G1 X87.021 Y123.985 E0.70961
G1 X86.991 Y124.153 E0.71676
G1 X86.857 Y124.62 E0.73712
G1 X86.807 Y124.754 E0.74312
G1 X86.629 Y125.126 E0.7604
G1 X86.557 Y125.252 E0.76648
G1 X86.261 Y125.66 E0.78761
G1 X85.863 Y126.067 E0.81146
G1 X85.734 Y126.173 E0.81846
G1 X85.383 Y126.414 E0.8363
G1 X85.297 Y126.462 E0.84043
G1 X84.856 Y126.666 E0.86079
G1 X84.723 Y126.716 E0.86675
G1 X84.329 Y126.825 E0.88388
G1 X84.163 Y126.855 E0.89095
G1 X83.763 Y126.893 E0.90779
G0 F18000 X83.672 Y126.478
G1 F1200 X83.163 Y126.447 E0.92916
G1 X83.02 Y126.419 E0.93526
G1 X82.538 Y126.287 E0.95621
G1 X82.458 Y126.255 E0.95982
G1 X82.037 Y126.038 E0.97967
G1 X81.712 Y125.809 E0.99633
G1 X81.609 Y125.719 E1.00206
G1 X81.341 Y125.451 E1.01794
G1 X81.251 Y125.348 E1.02368
G1 X80.983 Y124.955 E1.04361
G1 X80.767 Y124.491 E1.06506
G1 X80.728 Y124.372 E1.07031
G1 X80.633 Y123.998 E1.08648
G1 X80.582 Y123.511 E1.107
G1 X80.585 Y123.379 E1.11253
G1 X80.625 Y122.954 E1.13042
G1 X80.743 Y122.485 E1.15069
G1 X80.788 Y122.368 E1.15594
G1 X80.98 Y121.951 E1.17518
G1 X81.245 Y121.558 E1.19505
G1 X81.305 Y121.486 E1.19897
G1 X81.609 Y121.181 E1.21702
G1 X81.712 Y121.091 E1.22275
G1 X82.044 Y120.858 E1.23975
G1 X82.124 Y120.811 E1.24364
G1 X82.611 Y120.59 E1.26605
G1 X83.006 Y120.482 E1.28321
G1 X83.101 Y120.464 E1.28727
G1 X83.572 Y120.423 E1.30708
G1 X83.667 Y120.422 E1.31106
G1 X84.105 Y120.461 E1.32949
G1 X84.197 Y120.477 E1.3334
G1 X84.672 Y120.608 E1.35405
G1 X84.776 Y120.65 E1.35875
G1 X85.131 Y120.826 E1.37536
G1 X85.508 Y121.083 E1.39448
G1 X85.585 Y121.148 E1.3987
G1 X85.974 Y121.546 E1.42202
G1 X86.227 Y121.913 E1.4407
G1 X86.458 Y122.407 E1.46356
G1 X86.488 Y122.495 E1.46745
G1 X86.59 Y122.896 E1.48479
G1 X86.641 Y123.378 E1.50511
G1 X86.642 Y123.464 E1.50871
G1 X86.604 Y123.937 E1.5286
G1 X86.583 Y124.057 E1.5337
G1 X86.44 Y124.541 E1.55485
G1 X86.243 Y124.959 E1.57422
G1 X85.968 Y125.355 E1.59442
G1 X85.544 Y125.789 E1.61985
G1 X85.184 Y126.043 E1.63831
G1 X85.059 Y126.11 E1.64426
G1 X84.666 Y126.29 E1.66237
G1 X84.23 Y126.417 E1.6814
G1 X84.141 Y126.434 E1.6852
G1 X83.672 Y126.478 E1.70494
G0 F18000 X83.656 Y126.058
G1 F1200 X83.214 Y126.03 E1.7235
G1 X82.678 Y125.891 E1.74671
G1 X82.285 Y125.698 E1.76506
G1 X81.926 Y125.441 E1.78356
G1 X81.601 Y125.114 E1.80288
G1 X81.371 Y124.787 E1.81963
G1 X81.172 Y124.371 E1.83896
G1 X81.134 Y124.265 E1.84368
G1 X81.045 Y123.914 E1.85885
G1 X81.002 Y123.494 E1.87655
G1 X81.041 Y123.014 E1.89673
G1 X81.143 Y122.612 E1.91411
G1 X81.351 Y122.148 E1.93542
G1 X81.615 Y121.77 E1.95474
G1 X81.926 Y121.459 E1.97317
G1 X82.293 Y121.197 E1.99207
G1 X82.706 Y121.003 E2.01119
G1 X83.103 Y120.89 E2.02849
G1 X83.177 Y120.877 E2.03164
G1 X83.615 Y120.842 E2.05005
G1 X84.054 Y120.878 E2.06851
G1 X84.505 Y120.996 E2.08805
G1 X84.615 Y121.038 E2.09299
G1 X84.941 Y121.201 E2.10826
G1 X85.264 Y121.425 E2.12473
G1 X85.627 Y121.785 E2.14616
G1 X85.856 Y122.111 E2.16285
G1 X86.067 Y122.561 E2.18368
G1 X86.172 Y122.948 E2.20049
G1 X86.222 Y123.4 E2.21954
G1 X86.184 Y123.907 E2.24085
G1 X86.052 Y124.379 E2.26139
G1 X85.874 Y124.758 E2.27894
G1 X85.629 Y125.107 E2.29681
G1 X85.274 Y125.467 E2.318
G1 X84.923 Y125.709 E2.33586
G1 X84.495 Y125.906 E2.35561
G1 X84.059 Y126.022 E2.37452
G1 X83.656 Y126.058 E2.39147
G1 F1800 E1.64147
G0 F18000 X83.682 Y126.33
G0 X86.323 Y125.875
G0 X129.94 Y125.669
G0 X132.836 Y126.721
G1 F720 E2.39147
G1 F1200 X132.631 Y126.725 E2.40006
G1 X132.111 Y126.677 E2.42195
G1 X131.459 Y126.503 E2.45023
G1 X131.317 Y126.443 E2.45669
G1 X130.886 Y126.218 E2.47707
G1 X130.486 Y125.937 E2.49755
G1 X130.098 Y125.558 E2.52028
G1 X130.004 Y125.451 E2.52625
G1 X129.694 Y124.994 E2.54939
G1 X129.432 Y124.43 E2.57545
G1 X129.307 Y123.989 E2.59466
G1 X129.282 Y123.863 E2.60005
G1 X129.234 Y123.349 E2.62168
G1 X129.264 Y122.816 E2.64405
G1 X129.29 Y122.651 E2.65105
G1 X129.398 Y122.223 E2.66955
G1 X129.471 Y122.023 E2.67848
G1 X129.666 Y121.607 E2.69773
G1 X129.778 Y121.421 E2.70683
G1 X130.009 Y121.098 E2.72347
G1 X130.413 Y120.68 E2.74783
G1 X130.492 Y120.61 E2.75226
G1 X130.864 Y120.344 E2.77142
G1 X131.025 Y120.251 E2.77921
G1 X131.441 Y120.058 E2.79843
G1 X131.599 Y120 E2.80548
G1 X132.022 Y119.888 E2.82382
G1 X132.197 Y119.863 E2.83123
G1 X132.624 Y119.828 E2.84918
G1 X132.753 Y119.826 E2.85459
G1 X133.228 Y119.868 E2.87458
G1 X133.409 Y119.902 E2.88229
G1 X133.956 Y120.067 E2.90624
G1 X134.331 Y120.245 E2.92363
G1 X134.481 Y120.329 E2.93084
G1 X134.835 Y120.577 E2.94895
G1 X134.938 Y120.663 E2.95457
G1 X135.369 Y121.111 E2.98063
G1 X135.636 Y121.49 E3.00006
G1 X135.718 Y121.641 E3.00726
G1 X135.918 Y122.071 E3.02713
G1 X135.975 Y122.245 E3.0348
G1 X136.081 Y122.682 E3.05365
G1 X136.127 Y123.104 E3.07144
G1 X136.134 Y123.256 E3.07782
G1 X136.092 Y123.778 E3.09976
G1 X136.066 Y123.95 E3.10705
G1 X135.924 Y124.463 E3.12936
G1 X135.873 Y124.595 E3.13529
G1 X135.671 Y124.999 E3.15422
G1 X135.384 Y125.425 E3.17575
G1 X135.297 Y125.529 E3.18143
G1 X134.929 Y125.897 E3.20324
G1 X134.823 Y125.984 E3.20898
G1 X134.465 Y126.229 E3.22716
G1 X134.361 Y126.288 E3.23218
G1 X133.824 Y126.53 E3.25686
G1 X133.306 Y126.669 E3.27934
G1 X132.836 Y126.721 E3.29915
G0 F18000 X132.776 Y126.304
G1 F1200 X132.617 Y126.303 E3.30582
G1 X132.152 Y126.257 E3.3254
G1 X131.659 Y126.127 E3.34676
G1 X131.49 Y126.06 E3.35438
G1 X131.175 Y125.902 E3.36915
G1 X130.79 Y125.642 E3.38862
G1 X130.71 Y125.575 E3.39299
G1 X130.374 Y125.238 E3.41294
G1 X130.319 Y125.172 E3.41654
G1 X130.061 Y124.79 E3.43586
G1 X129.836 Y124.312 E3.458
G1 X129.715 Y123.889 E3.47643
G1 X129.693 Y123.769 E3.48155
G1 X129.654 Y123.334 E3.49985
G1 X129.693 Y122.778 E3.52321
G1 X129.811 Y122.308 E3.54352
G1 X129.86 Y122.183 E3.54914
G1 X130.083 Y121.72 E3.57068
G1 X130.307 Y121.399 E3.58708
G1 X130.39 Y121.3 E3.5925
G1 X130.778 Y120.919 E3.61529
G1 X131.165 Y120.652 E3.63499
G1 X131.692 Y120.411 E3.65927
G1 X132.169 Y120.288 E3.67992
G1 X132.739 Y120.246 E3.70387
G1 X133.24 Y120.295 E3.72497
G1 X133.733 Y120.433 E3.74642
G1 X133.867 Y120.487 E3.75248
G1 X134.219 Y120.661 E3.76893
G1 X134.579 Y120.91 E3.78728
G1 X134.653 Y120.972 E3.79132
G1 X135.003 Y121.328 E3.81224
G1 X135.28 Y121.712 E3.83209
G1 X135.528 Y122.227 E3.85604
G1 X135.569 Y122.351 E3.86151
G1 X135.663 Y122.726 E3.87771
G1 X135.713 Y123.199 E3.89765
G1 X135.71 Y123.354 E3.90414
G1 X135.655 Y123.862 E3.92556
G1 X135.525 Y124.331 E3.94595
G1 X135.489 Y124.425 E3.95017
G1 X135.305 Y124.793 E3.96741
G1 X135.019 Y125.209 E3.98857
G1 X134.646 Y125.586 E4.0108
G1 X134.571 Y125.648 E4.01487
G1 X134.206 Y125.894 E4.03332
G1 X133.754 Y126.108 E4.05428
G1 X133.654 Y126.144 E4.05873
G1 X133.297 Y126.242 E4.07425
G1 X133.202 Y126.26 E4.0783
G1 X132.776 Y126.304 E4.09625
G0 F18000 X132.729 Y125.886
G1 F1200 X132.293 Y125.855 E4.11456
G1 X131.762 Y125.719 E4.13754
G1 X131.367 Y125.528 E4.15592
G1 X130.995 Y125.267 E4.17497
G1 X130.694 Y124.966 E4.19281
G1 X130.436 Y124.6 E4.21157
G1 X130.228 Y124.16 E4.23197
G1 X130.119 Y123.772 E4.24886
G1 X130.074 Y123.319 E4.26794
G1 X130.111 Y122.827 E4.28861
G1 X130.211 Y122.436 E4.30553
G1 X130.433 Y121.954 E4.32777
G1 X130.67 Y121.617 E4.34503
G1 X131.001 Y121.28 E4.36483
G1 X131.357 Y121.026 E4.38315
G1 X131.791 Y120.822 E4.40325
G1 X132.211 Y120.707 E4.4215
G1 X132.669 Y120.666 E4.44077
G1 X133.125 Y120.702 E4.45994
G1 X133.223 Y120.722 E4.46413
G1 X133.663 Y120.855 E4.4834
G1 X134.028 Y121.037 E4.50049
G1 X134.324 Y121.243 E4.5156
G1 X134.71 Y121.632 E4.53857
G1 X134.942 Y121.966 E4.55561
G1 X135.138 Y122.382 E4.57488
G1 X135.251 Y122.811 E4.59347
G1 X135.294 Y123.284 E4.61338
G1 X135.249 Y123.749 E4.63295
G1 X135.127 Y124.199 E4.65249
G1 X134.938 Y124.588 E4.67062
G1 X134.732 Y124.893 E4.68604
G1 X134.658 Y124.982 E4.69089
G1 X134.364 Y125.275 E4.70829
G1 X133.977 Y125.541 E4.72797
G1 X133.59 Y125.721 E4.74585
G1 X133.18 Y125.838 E4.76372
G1 X132.729 Y125.886 E4.78273
G1 F1800 E4.03273
G0 F18000 X132.754 Y126.155
G0 X132.67 Y126.917
G0 X132.79 Y177.811
G0 X134.608 Y179.273
G0 X134.954 Y179.612
G0 X135.243 Y180.014
G0 X135.455 Y180.457
G0 X135.588 Y180.933
G0 X135.636 Y181.424
G0 X135.59 Y181.96
G0 X135.474 Y182.395
G0 X135.247 Y182.883
G0 X134.766 Y183.456
G0 X132.923 Y184.896
G1 F720 E4.78273
G1 F1200 X132.728 Y184.895 E4.7909
G1 X132.332 Y184.866 E4.80754
G1 X132.195 Y184.844 E4.81336
G1 X131.58 Y184.676 E4.84007
G1 X131.43 Y184.611 E4.84693
G1 X131.058 Y184.421 E4.86443
G1 X130.706 Y184.179 E4.88233
G1 X130.512 Y184.016 E4.89295
G1 X130.244 Y183.748 E4.90883
G1 X130.119 Y183.606 E4.91676
G1 X129.835 Y183.192 E4.9378
G1 X129.582 Y182.659 E4.96253
G1 X129.549 Y182.57 E4.96651
G1 X129.421 Y182.078 E4.98781
G1 X129.37 Y181.62 E5.00712
G1 X129.362 Y181.476 E5.01317
G1 X129.402 Y180.944 E5.03553
G1 X129.434 Y180.775 E5.04273
G1 X129.561 Y180.304 E5.06318
G1 X129.832 Y179.713 E5.09042
G1 X130.131 Y179.278 E5.11255
G1 X130.187 Y179.212 E5.11617
G1 X130.597 Y178.805 E5.14038
G1 X131.008 Y178.51 E5.16158
G1 X131.12 Y178.444 E5.16703
G1 X131.604 Y178.219 E5.1894
G1 X131.768 Y178.164 E5.19665
G1 X132.147 Y178.064 E5.21308
G1 X132.325 Y178.039 E5.22061
G1 X132.883 Y178.002 E5.24405
G1 X133.337 Y178.042 E5.26315
G1 X133.522 Y178.074 E5.27101
G1 X133.98 Y178.202 E5.29094
G1 X134.134 Y178.26 E5.29784
G1 X134.517 Y178.449 E5.31574
G1 X134.611 Y178.504 E5.3203
G1 X134.958 Y178.745 E5.33801
G1 X135.059 Y178.829 E5.34351
G1 X135.432 Y179.202 E5.36562
G1 X135.517 Y179.303 E5.37115
G1 X135.775 Y179.677 E5.39019
G1 X135.856 Y179.829 E5.39741
G1 X136.05 Y180.256 E5.41706
G1 X136.079 Y180.337 E5.42067
G1 X136.205 Y180.83 E5.44199
G1 X136.255 Y181.28 E5.46097
G1 X136.262 Y181.463 E5.46864
G1 X136.206 Y182.086 E5.49486
G1 X136.068 Y182.585 E5.51655
G1 X136.015 Y182.736 E5.52326
G1 X135.807 Y183.168 E5.54335
G1 X135.764 Y183.241 E5.54691
G1 X135.489 Y183.626 E5.56673
G1 X135.065 Y184.066 E5.59234
G1 X134.96 Y184.153 E5.59805
G1 X134.602 Y184.401 E5.61631
G1 X134.49 Y184.465 E5.62171
G1 X133.995 Y184.691 E5.64452
G1 X133.523 Y184.826 E5.66509
G1 X133.353 Y184.856 E5.67232
G1 X132.923 Y184.896 E5.69042
G0 F18000 X132.897 Y184.477
G1 F1200 X132.787 Y184.478 E5.69503
G1 X132.377 Y184.448 E5.71226
G1 X132.28 Y184.433 E5.71637
G1 X131.725 Y184.282 E5.74048
G1 X131.272 Y184.06 E5.76162
G1 X130.948 Y183.835 E5.77815
G1 X130.809 Y183.719 E5.78574
G1 X130.541 Y183.451 E5.80162
G1 X130.452 Y183.349 E5.80729
G1 X130.198 Y182.982 E5.826
G1 X129.947 Y182.437 E5.85114
G1 X129.834 Y182.003 E5.86994
G1 X129.787 Y181.577 E5.8879
G1 X129.785 Y181.379 E5.8962
G1 X129.818 Y180.999 E5.91218
G1 X129.835 Y180.904 E5.91623
G1 X129.956 Y180.447 E5.93604
G1 X130.196 Y179.922 E5.96023
G1 X130.459 Y179.54 E5.97967
G1 X130.87 Y179.125 E6.00414
G1 X131.236 Y178.862 E6.02303
G1 X131.365 Y178.791 E6.0292
G1 X131.76 Y178.609 E6.04743
G1 X132.203 Y178.482 E6.06674
G1 X132.36 Y178.457 E6.0734
G1 X132.868 Y178.422 E6.09474
G1 X133.389 Y178.475 E6.11669
G1 X133.926 Y178.628 E6.14009
G1 X134.385 Y178.858 E6.16161
G1 X134.704 Y179.079 E6.17787
G1 X134.811 Y179.173 E6.18384
G1 X135.123 Y179.486 E6.20236
G1 X135.183 Y179.558 E6.20629
G1 X135.447 Y179.949 E6.22606
G1 X135.659 Y180.409 E6.24728
G1 X135.697 Y180.527 E6.25248
G1 X135.791 Y180.902 E6.26868
G1 X135.842 Y181.388 E6.28916
G1 X135.807 Y181.904 E6.31083
G1 X135.782 Y182.06 E6.31746
G1 X135.647 Y182.522 E6.33763
G1 X135.468 Y182.91 E6.35553
G1 X135.408 Y183.017 E6.36067
G1 X135.161 Y183.364 E6.37852
G1 X134.78 Y183.757 E6.40146
G1 X134.667 Y183.847 E6.40752
G1 X134.339 Y184.07 E6.42414
G1 X133.813 Y184.31 E6.44837
G1 X133.425 Y184.418 E6.46525
G1 X133.316 Y184.438 E6.46989
G1 X132.897 Y184.477 E6.48753
G0 F18000 X132.849 Y184.058
G1 F1200 X132.364 Y184.022 E6.50791
G1 X131.87 Y183.888 E6.52936
G1 X131.486 Y183.698 E6.54731
G1 X131.189 Y183.492 E6.56246
G1 X131.106 Y183.422 E6.56701
G1 X130.784 Y183.093 E6.5863
G1 X130.562 Y182.772 E6.60266
G1 X130.36 Y182.342 E6.62257
G1 X130.248 Y181.929 E6.6405
G1 X130.205 Y181.533 E6.65719
G1 X130.204 Y181.415 E6.66214
G1 X130.239 Y181.026 E6.67851
G1 X130.351 Y180.589 E6.69741
G1 X130.534 Y180.182 E6.71611
G1 X130.59 Y180.084 E6.72085
G1 X130.787 Y179.802 E6.73526
G1 X131.125 Y179.46 E6.75541
G1 X131.483 Y179.203 E6.77388
G1 X131.967 Y178.981 E6.7962
G1 X132.337 Y178.883 E6.81224
G1 X132.798 Y178.842 E6.83163
G1 X133.245 Y178.877 E6.85042
G1 X133.345 Y178.896 E6.85469
G1 X133.727 Y179.003 E6.87131
G1 X133.815 Y179.038 E6.87528
G1 X134.139 Y179.2 E6.89046
G1 X134.493 Y179.45 E6.90862
G1 X134.849 Y179.813 E6.92993
G1 X135.058 Y180.115 E6.94532
G1 X135.28 Y180.597 E6.96756
G1 X135.377 Y180.975 E6.98392
G1 X135.422 Y181.406 E7.00208
G1 X135.385 Y181.9 E7.02284
G1 X135.365 Y181.993 E7.02682
G1 X135.239 Y182.414 E7.04524
G1 X135.072 Y182.762 E7.06142
G1 X134.833 Y183.102 E7.07883
G1 X134.496 Y183.448 E7.09907
G1 X134.156 Y183.69 E7.11656
G1 X133.716 Y183.898 E7.13696
G1 X133.308 Y184.014 E7.15474
G1 X132.849 Y184.058 E7.17406
G1 F1800 E6.42406
G0 F18000 X132.875 Y184.331
G0 X131.344 Y184.781
G0 X125.272 Y185.241
G0 X124.088 Y189.002
G1 F720 E7.17406
G1 F1200 X123.729 Y189.142 E7.19021
G1 X123.459 Y189.203 E7.20181
G1 X123.319 Y189.214 E7.20769
