;FLAVOR:Marlin
;TIME:2036
;Filament used: 4.05507m
;Layer height: 0.2
;MINX:139.784
;MINY:23.972
;MINZ:0.2
;MAXX:314.384
;MAXY:133.572
;MAXZ:7
;TARGET_MACHINE.NAME:VORON2 350
;Generated with Cura_SteamEngine 5.7.0


; Pre-Processed for Cancel-Object support by preprocess_cancellation v0.2.0
; 1 known objects
EXCLUDE_OBJECT_DEFINE NAME=Body1_stl CENTER=226.829,78.430 POLYGON=[[139.784,23.972],[139.784,133.572],[314.384,133.572],[314.384,23.972]]
M82 ;absolute extrusion mode
; Script based on an original created by tjjfvi (https://github.com/tjjfvi)
; An up-to-date version of the tjjfvi's original script can be found
; here:  https://csi.t6.fyi/
; Note - This script will only work in Cura V4.2 and above!
; --- Global Settings
; layer_height = 0.2
; smooth_spiralized_contours = True
; magic_mesh_surface_mode = normal
; machine_extruder_count = 1
; --- Single Extruder Settings
; speed_z_hop = 10
; retraction_amount = 0.75
; retraction_hop = 0.2
; retraction_hop_enabled = True
; retraction_enable = True
; retraction_speed = 30
; retraction_retract_speed = 30
; retraction_prime_speed = 12
; speed_travel = 150.0
CARTOGRAPHER_MODEL_SELECT NAME="StrucktDbl-Cold"
CARTOGRAPHER_MODEL_LIST
print_start EXTRUDER=245 BED=85.0 
; CHAMBER=0
G92 E0
G92 E0
G1 F1800 E-0.75
;LAYER_COUNT:35
;LAYER:0
M107
G1 F600 Z0.4
;MESH:Body1.stl
EXCLUDE_OBJECT_START NAME=Body1_stl
G0 F3600 X308.31 Y128.765 Z0.4
;TYPE:WALL-OUTER
G1 F600 Z0.2
G1 F720 E0
G1 F3000 X307.931 Y128.864 E0.01634
G1 X307.599 Y128.892 E0.03023
G1 X146.569 Y128.892 E6.74651
G1 X146.233 Y128.864 E6.76057
G1 X145.858 Y128.764 E6.77676
G1 X145.542 Y128.616 E6.79131
G1 X145.224 Y128.4 E6.80734
G1 X144.944 Y128.116 E6.82398
G1 X144.748 Y127.834 E6.8383
G1 X144.595 Y127.499 E6.85366
G1 X144.503 Y127.163 E6.86819
G1 X144.465 Y126.811 E6.88296
G1 X144.464 Y30.757 E10.8892
G1 X144.492 Y30.425 E10.9031
G1 X144.579 Y30.087 E10.91765
G1 X144.758 Y29.699 E10.93547
G1 X144.96 Y29.412 E10.95011
G1 X145.24 Y29.136 E10.96651
G1 X145.52 Y28.941 E10.98074
G1 X145.858 Y28.783 E10.9963
G1 X146.198 Y28.691 E11.01099
G1 X146.588 Y28.652 E11.02734
G1 X307.596 Y28.656 E17.7427
G1 X307.932 Y28.68 E17.75675
G1 X308.308 Y28.783 E17.77301
G1 X308.624 Y28.927 E17.78749
G1 X308.918 Y29.127 E17.80232
G1 X309.221 Y29.425 E17.82005
G1 X309.401 Y29.681 E17.8331
G1 X309.573 Y30.046 E17.84993
G1 X309.665 Y30.386 E17.86462
G1 X309.703 Y30.737 E17.87934
G1 X309.704 Y126.768 E21.88462
G1 X309.666 Y127.159 E21.90101
G1 X309.59 Y127.459 E21.91392
G1 X309.41 Y127.849 E21.93183
G1 X309.208 Y128.136 E21.94647
G1 X308.928 Y128.412 E21.96287
G1 X308.648 Y128.607 E21.9771
G1 X308.31 Y128.765 E21.99266
G0 F3600 X308.117 Y128.815
G1 F1800 E21.24266
G1 F600 Z0.4
G0 F3600 X308.389 Y129.801 Z0.4
G0 X313.572 Y133.552
G1 F600 Z0.2
G1 F720 E21.99266
G1 F3000 X313.722 Y133.542 E21.99893
G1 X313.851 Y133.505 E22.00453
G1 X313.974 Y133.448 E22.01018
G1 X314.084 Y133.371 E22.01578
G1 X314.178 Y133.274 E22.02142
G1 X314.26 Y133.16 E22.02727
G1 X314.316 Y133.04 E22.0328
G1 X314.35 Y132.913 E22.03828
G1 X314.364 Y132.766 E22.04444
G1 X314.364 Y24.778 E26.54842
G1 X314.35 Y24.631 E26.55458
G1 X314.32 Y24.515 E26.55958
G1 X314.261 Y24.388 E26.56542
G1 X314.178 Y24.274 E26.5713
G1 X314.085 Y24.177 E26.57691
G1 X313.972 Y24.099 E26.58263
G1 X313.85 Y24.039 E26.5883
G1 X313.727 Y24.006 E26.59362
G1 X313.58 Y23.996 E26.59976
G1 X140.598 Y23.993 E33.81453
G1 X140.444 Y24.006 E33.82098
G1 X140.325 Y24.04 E33.82614
G1 X140.194 Y24.1 E33.83215
G1 X140.084 Y24.177 E33.83775
G1 X139.991 Y24.273 E33.84332
G1 X139.911 Y24.388 E33.84917
G1 X139.851 Y24.511 E33.85487
G1 X139.818 Y24.632 E33.86011
G1 X139.804 Y24.778 E33.86622
G1 X139.804 Y132.766 E38.37021
G1 X139.818 Y132.914 E38.37641
G1 X139.848 Y133.031 E38.38145
G1 X139.911 Y133.16 E38.38743
G1 X139.991 Y133.275 E38.39328
G1 X140.084 Y133.371 E38.39885
G1 X140.194 Y133.448 E38.40445
G1 X140.316 Y133.504 E38.41005
G1 X140.443 Y133.538 E38.41553
G1 X140.59 Y133.552 E38.42169
G1 X313.572 Y133.552 E45.63646
G0 F3600 X313.722 Y133.542
G0 X313.77 Y133.529
G1 F1800 E44.88646
G1 F600 Z0.4
G0 F3600 X313.346 Y132.54 Z0.4
G0 X308.026 Y129.295
;TYPE:WALL-INNER
G1 F600 Z0.2
G1 F720 E45.63646
G1 F3000 X307.636 Y129.33 E45.65279
G1 X146.533 Y129.33 E52.37211
G1 X146.197 Y129.302 E52.38617
G1 X146.081 Y129.282 E52.39108
G1 X145.782 Y129.202 E52.40399
G1 X145.672 Y129.162 E52.40888
G1 X145.267 Y128.964 E52.42768
G1 X145.011 Y128.792 E52.44054
G1 X144.913 Y128.711 E52.44584
G1 X144.657 Y128.455 E52.46094
G1 X144.585 Y128.37 E52.46559
G1 X144.409 Y128.123 E52.47824
G1 X144.349 Y128.02 E52.48321
G1 X144.21 Y127.72 E52.497
G1 X144.171 Y127.615 E52.50167
G1 X144.065 Y127.218 E52.51881
G1 X144.027 Y126.855 E52.53403
G1 X144.026 Y30.72 E56.54365
G1 X144.054 Y30.388 E56.55755
G1 X144.074 Y30.273 E56.56242
G1 X144.154 Y29.974 E56.57533
G1 X144.192 Y29.866 E56.5801
G1 X144.341 Y29.546 E56.59483
G1 X144.396 Y29.45 E56.59944
G1 X144.572 Y29.194 E56.6124
G1 X144.649 Y29.101 E56.61743
G1 X144.901 Y28.849 E56.6323
G1 X144.986 Y28.777 E56.63694
G1 X145.233 Y28.601 E56.64959
G1 X145.33 Y28.544 E56.65429
G1 X145.63 Y28.401 E56.66815
G1 X145.743 Y28.358 E56.67319
G1 X146.142 Y28.253 E56.6904
G1 X146.588 Y28.212 E56.70908
G1 X307.628 Y28.217 E63.42577
G1 X307.964 Y28.241 E63.43982
G1 X308.094 Y28.264 E63.44532
G1 X308.49 Y28.383 E63.46257
G1 X308.806 Y28.527 E63.47705
G1 X308.908 Y28.585 E63.48195
G1 X309.168 Y28.765 E63.49514
G1 X309.255 Y28.837 E63.49985
G1 X309.503 Y29.081 E63.51436
G1 X309.581 Y29.172 E63.51936
G1 X309.761 Y29.428 E63.53241
G1 X309.817 Y29.525 E63.53708
G1 X309.957 Y29.821 E63.55074
G1 X309.998 Y29.931 E63.55563
G1 X310.09 Y30.271 E63.57032
G1 X310.109 Y30.377 E63.57482
G1 X310.141 Y30.693 E63.58806
G1 X310.144 Y126.768 E67.59518
G1 X310.103 Y127.218 E67.61403
G1 X310.017 Y127.567 E67.62902
G1 X309.976 Y127.682 E67.63411
G1 X309.827 Y128.002 E67.64883
G1 X309.773 Y128.099 E67.65346
G1 X309.596 Y128.354 E67.66641
G1 X309.519 Y128.447 E67.67144
G1 X309.267 Y128.699 E67.68631
G1 X309.182 Y128.771 E67.69095
G1 X308.935 Y128.947 E67.7036
G1 X308.838 Y129.003 E67.70828
G1 X308.538 Y129.147 E67.72216
G1 X308.425 Y129.19 E67.7272
G1 X308.026 Y129.295 E67.74441
G1 F1800 E66.99441
G0 F3600 X308.046 Y129.538
G0 X146.16 Y129.741
G1 F720 E67.74441
G1 F3000 X145.968 Y129.707 E67.75254
G1 X145.668 Y129.628 E67.76548
G1 X145.485 Y129.561 E67.77361
G1 X145.169 Y129.413 E67.78816
G1 X145.022 Y129.33 E67.7952
G1 X144.766 Y129.157 E67.80809
G1 X144.602 Y129.022 E67.81695
G1 X144.346 Y128.766 E67.83205
G1 X144.226 Y128.625 E67.83977
G1 X144.05 Y128.377 E67.85245
G1 X143.951 Y128.206 E67.86069
G1 X143.811 Y127.906 E67.8745
G1 X143.746 Y127.731 E67.88229
G1 X143.632 Y127.294 E67.90112
G1 X143.584 Y126.788 E67.92232
G1 X143.587 Y30.683 E71.93069
G1 X143.615 Y30.351 E71.94459
G1 X143.649 Y30.16 E71.95268
G1 X143.728 Y29.86 E71.96562
G1 X143.793 Y29.682 E71.97352
G1 X143.941 Y29.362 E71.98823
G1 X144.033 Y29.2 E71.996
G1 X144.209 Y28.944 E72.00895
G1 X144.338 Y28.79 E72.01733
G1 X144.59 Y28.538 E72.0322
G1 X144.731 Y28.418 E72.03992
G1 X144.979 Y28.242 E72.0526
G1 X145.139 Y28.148 E72.06034
G1 X145.44 Y28.004 E72.07426
G1 X145.628 Y27.934 E72.08263
G1 X146.066 Y27.82 E72.1015
G1 X146.588 Y27.772 E72.12337
G1 X307.659 Y27.778 E78.84135
G1 X307.995 Y27.803 E78.8554
G1 X308.213 Y27.84 E78.86462
G1 X308.513 Y27.924 E78.87762
G1 X308.673 Y27.983 E78.88473
G1 X308.989 Y28.126 E78.8992
G1 X309.159 Y28.223 E78.90736
G1 X309.419 Y28.403 E78.92055
G1 X309.564 Y28.523 E78.9284
G1 X309.812 Y28.767 E78.94291
G1 X309.941 Y28.919 E78.95123
G1 X310.121 Y29.175 E78.96428
G1 X310.215 Y29.337 E78.97209
G1 X310.355 Y29.633 E78.98575
G1 X310.422 Y29.816 E78.99388
G1 X310.515 Y30.156 E79.00858
G1 X310.547 Y30.333 E79.01608
G1 X310.584 Y30.76 E79.03396
G1 X310.584 Y126.768 E83.03828
G1 X310.536 Y127.294 E83.06031
G1 X310.443 Y127.675 E83.07666
G1 X310.375 Y127.866 E83.08512
G1 X310.227 Y128.186 E83.09983
G1 X310.135 Y128.348 E83.1076
G1 X309.959 Y128.604 E83.12055
G1 X309.83 Y128.758 E83.12893
G1 X309.578 Y129.01 E83.1438
G1 X309.437 Y129.13 E83.15152
G1 X309.189 Y129.306 E83.1642
G1 X309.029 Y129.4 E83.17194
G1 X308.728 Y129.544 E83.18586
G1 X308.54 Y129.614 E83.19423
G1 X308.102 Y129.728 E83.2131
G1 X307.58 Y129.772 E83.23495
G1 X146.496 Y129.769 E89.95348
G1 X146.16 Y129.741 E89.96754
G1 F1800 E89.21754
G0 F3600 X308.042 Y130.179
G1 F720 E89.96754
G1 F3000 X307.58 Y130.212 E89.98686
G1 X146.588 Y130.212 E96.70154
G1 X146.124 Y130.18 E96.72094
G1 X145.855 Y130.133 E96.73233
G1 X145.555 Y130.053 E96.74528
G1 X145.298 Y129.959 E96.7567
G1 X144.982 Y129.811 E96.77125
G1 X144.777 Y129.695 E96.78107
G1 X144.521 Y129.522 E96.79396
G1 X144.291 Y129.333 E96.80638
G1 X144.035 Y129.077 E96.82148
G1 X143.868 Y128.88 E96.83225
G1 X143.692 Y128.632 E96.84493
G1 X143.552 Y128.392 E96.85652
G1 X143.412 Y128.092 E96.87033
G1 X143.322 Y127.847 E96.88121
G1 X143.199 Y127.37 E96.90176
G1 X143.152 Y126.944 E96.91964
G1 X143.144 Y126.788 E96.92615
G1 X143.149 Y30.646 E100.93606
G1 X143.177 Y30.314 E100.94996
G1 X143.223 Y30.047 E100.96126
G1 X143.303 Y29.747 E100.97421
G1 X143.394 Y29.497 E100.9853
G1 X143.542 Y29.177 E101.00001
G1 X143.671 Y28.951 E101.01086
G1 X143.847 Y28.695 E101.02382
G1 X144.027 Y28.479 E101.03555
G1 X144.279 Y28.227 E101.05041
G1 X144.476 Y28.059 E101.06121
G1 X144.724 Y27.883 E101.07389
G1 X144.949 Y27.751 E101.08477
G1 X145.249 Y27.607 E101.09865
G1 X145.513 Y27.509 E101.1104
G1 X145.99 Y27.387 E101.13093
G1 X146.44 Y27.339 E101.14981
G1 X146.588 Y27.332 E101.15599
G1 X307.69 Y27.339 E107.87526
G1 X308.026 Y27.364 E107.88932
G1 X308.332 Y27.417 E107.90227
G1 X308.632 Y27.5 E107.91525
G1 X308.855 Y27.582 E107.92516
G1 X309.171 Y27.726 E107.93965
G1 X309.409 Y27.861 E107.95106
G1 X309.669 Y28.041 E107.96425
G1 X309.873 Y28.21 E107.9753
G1 X310.12 Y28.454 E107.98978
G1 X310.301 Y28.666 E108.0014
G1 X310.481 Y28.922 E108.01446
G1 X310.613 Y29.149 E108.02541
G1 X310.752 Y29.445 E108.03905
G1 X310.847 Y29.701 E108.05044
G1 X310.939 Y30.041 E108.06513
G1 X310.984 Y30.288 E108.0756
G1 X311.024 Y30.76 E108.09535
G1 X311.024 Y126.768 E112.09968
G1 X311.017 Y126.914 E112.10577
G1 X310.97 Y127.37 E112.12489
G1 X310.87 Y127.783 E112.14262
G1 X310.774 Y128.051 E112.15449
G1 X310.626 Y128.371 E112.16919
G1 X310.498 Y128.597 E112.18003
G1 X310.321 Y128.853 E112.19301
G1 X310.141 Y129.069 E112.20473
G1 X309.889 Y129.321 E112.2196
G1 X309.692 Y129.488 E112.23037
G1 X309.444 Y129.664 E112.24305
G1 X309.219 Y129.797 E112.25396
G1 X308.919 Y129.941 E112.26783
G1 X308.655 Y130.039 E112.27958
G1 X308.178 Y130.161 E112.30012
G1 X308.042 Y130.179 E112.30584
G1 F1800 E111.55584
G1 F600 Z0.4
G0 F3600 X308.022 Y129.954 Z0.4
G0 X140.61 Y133.112
G1 F600 Z0.2
G1 F720 E112.30584
G1 F3000 X313.646 Y133.106 E119.52286
G1 X313.755 Y133.065 E119.52772
G1 X313.84 Y132.991 E119.53242
G1 X313.878 Y132.937 E119.53517
G1 X313.915 Y132.836 E119.53966
G1 X313.924 Y132.746 E119.54343
G1 X313.924 Y24.798 E124.04575
G1 X313.905 Y24.665 E124.05135
G1 X313.88 Y24.612 E124.05379
G1 X313.799 Y24.514 E124.0591
G1 X313.695 Y24.453 E124.06413
G1 X313.655 Y24.442 E124.06586
G1 X140.617 Y24.433 E131.28296
G1 X140.524 Y24.441 E131.28685
G1 X140.414 Y24.484 E131.29178
G1 X140.332 Y24.553 E131.29625
G1 X140.292 Y24.611 E131.29919
G1 X140.253 Y24.711 E131.30367
G1 X140.244 Y24.798 E131.30731
G1 X140.244 Y132.746 E135.80963
G1 X140.263 Y132.878 E135.81519
G1 X140.332 Y132.995 E135.82086
G1 X140.413 Y133.065 E135.82532
G1 X140.521 Y133.103 E135.8301
G1 X140.61 Y133.112 E135.83383
G1 F1800 E135.08383
G0 F3600 X140.611 Y132.875
G0 X313.484 Y132.672
G1 F720 E135.83383
G1 F3000 X313.484 Y24.876 E140.32981
G1 X140.685 Y24.873 E147.53695
G1 X140.685 Y132.671 E152.03301
G1 X313.484 Y132.672 E159.24014
G0 F3600 X313.044 Y132.232
G1 F3000 X313.044 Y25.316 E163.69942
G1 X141.125 Y25.313 E170.86985
G1 X141.125 Y132.231 E175.32921
G1 X313.044 Y132.232 E182.49964
G0 F3600 X312.597 Y131.785
;TYPE:SKIN
G1 F3000 X312.597 Y25.759 E187.47457
G1 X141.571 Y25.759 E195.4994
G1 X141.572 Y131.784 E200.47428
G1 X312.597 Y131.785 E208.49907
G1 F1800 E207.74907
G1 F600 Z0.4
G0 F3600 X312.596 Y132.451 Z0.4
G0 X146.07 Y130.62
G1 F600 Z0.2
G1 F720 E208.49907
G1 F3000 X145.718 Y130.559 E208.51583
G1 X145.442 Y130.483 E208.52927
G1 X145.127 Y130.369 E208.54499
G1 X144.788 Y130.213 E208.56249
G1 X144.53 Y130.066 E208.57643
G1 X144.246 Y129.875 E208.59249
G1 X143.994 Y129.667 E208.60782
G1 X143.704 Y129.373 E208.6272
G1 X143.512 Y129.149 E208.64104
G1 X143.313 Y128.871 E208.65708
G1 X143.157 Y128.6 E208.67175
G1 X142.995 Y128.256 E208.68959
G1 X142.889 Y127.955 E208.70457
G1 X142.756 Y127.447 E208.72921
G1 X142.705 Y126.976 E208.75144
G1 X142.697 Y126.788 E208.76027
G1 X142.697 Y30.759 E213.26611
G1 X142.732 Y30.26 E213.28958
G1 X142.797 Y29.908 E213.30638
G1 X142.874 Y29.617 E213.3205
G1 X142.983 Y29.312 E213.3357
G1 X143.135 Y28.984 E213.35266
G1 X143.29 Y28.715 E213.36723
G1 X143.471 Y28.448 E213.38237
G1 X143.694 Y28.181 E213.39869
G1 X143.979 Y27.896 E213.4176
G1 X144.203 Y27.704 E213.43145
G1 X144.499 Y27.494 E213.44847
G1 X144.758 Y27.344 E213.46252
G1 X145.071 Y27.197 E213.47874
G1 X145.403 Y27.072 E213.49539
G1 X145.909 Y26.944 E213.51988
G1 X146.404 Y26.893 E213.54323
G1 X146.588 Y26.885 E213.55187
G1 X307.718 Y26.893 E221.11237
G1 X308.078 Y26.92 E221.12931
G1 X308.457 Y26.986 E221.14736
G1 X308.763 Y27.075 E221.16231
G1 X309.043 Y27.175 E221.17626
G1 X309.379 Y27.329 E221.19361
G1 X309.639 Y27.477 E221.20764
G1 X309.943 Y27.686 E221.22495
G1 X310.182 Y27.887 E221.23961
G1 X310.43 Y28.131 E221.25593
G1 X310.649 Y28.388 E221.27178
G1 X310.846 Y28.665 E221.28772
G1 X311.016 Y28.958 E221.30362
G1 X311.152 Y29.246 E221.31856
G1 X311.268 Y29.558 E221.33418
G1 X311.372 Y29.933 E221.35244
G1 X311.427 Y30.251 E221.36758
G1 X311.467 Y30.739 E221.39056
G1 X311.467 Y126.777 E225.89683
G1 X311.458 Y126.953 E225.9051
G1 X311.408 Y127.455 E225.92877
G1 X311.297 Y127.907 E225.95061
G1 X311.181 Y128.232 E225.9668
G1 X311.02 Y128.578 E225.98471
G1 X310.88 Y128.826 E225.99807
G1 X310.678 Y129.119 E226.01477
G1 X310.474 Y129.363 E226.02969
G1 X310.188 Y129.649 E226.04867
G1 X309.945 Y129.853 E226.06356
G1 X309.685 Y130.041 E226.07861
G1 X309.407 Y130.199 E226.09361
G1 X309.096 Y130.348 E226.1098
G1 X308.788 Y130.464 E226.12524
G1 X308.259 Y130.596 E226.15082
G1 X307.746 Y130.65 E226.17502
G1 X146.571 Y130.655 E233.73764
G1 X146.07 Y130.62 E233.7612
G1 F1800 E233.0112
G1 F600 Z0.4
G0 F3600 X146.16 Y129.962 Z0.4
G0 X141.818 Y131.318
G1 F600 Z0.2
G1 F720 E233.7612
G1 F3000 X142.038 Y131.537 E233.77577
G0 F3600 X142.738 Y131.537
G1 F3000 X141.818 Y130.617 E233.83681
G0 F3600 X141.818 Y129.917
G1 F3000 X143.438 Y131.537 E233.94431
G0 F3600 X144.138 Y131.537
G1 F3000 X141.818 Y129.217 E234.09826
G0 F3600 X141.818 Y128.517
G1 F3000 X144.838 Y131.537 E234.29866
G0 F3600 X145.538 Y131.537
G1 F3000 X143.96 Y129.959 E234.40337
G0 F3600 X143.408 Y129.408
G1 F3000 X141.818 Y127.817 E234.50892
G0 F3600 X141.818 Y127.117
G1 F3000 X142.626 Y127.925 E234.56253
G0 F3600 X142.467 Y127.066
G1 F3000 X141.818 Y126.417 E234.6056
G0 F3600 X142.451 Y126.35
G1 F3000 X141.818 Y125.717 E234.6476
G0 F3600 X142.451 Y125.65
G1 F3000 X141.818 Y125.017 E234.68961
G0 F3600 X142.451 Y124.95
G1 F3000 X141.818 Y124.317 E234.73161
G0 F3600 X142.451 Y124.25
G1 F3000 X141.818 Y123.617 E234.77361
G0 F3600 X142.451 Y123.55
G1 F3000 X141.818 Y122.917 E234.81562
G0 F3600 X142.451 Y122.85
G1 F3000 X141.818 Y122.217 E234.85762
G0 F3600 X142.451 Y122.15
G1 F3000 X141.818 Y121.517 E234.89963
G0 F3600 X142.451 Y121.45
G1 F3000 X141.818 Y120.817 E234.94163
G0 F3600 X142.451 Y120.75
G1 F3000 X141.818 Y120.117 E234.98364
G0 F3600 X142.451 Y120.05
G1 F3000 X141.818 Y119.417 E235.02564
G0 F3600 X142.451 Y119.35
G1 F3000 X141.818 Y118.717 E235.06764
G0 F3600 X142.451 Y118.65
G1 F3000 X141.818 Y118.017 E235.10965
G0 F3600 X142.451 Y117.95
G1 F3000 X141.818 Y117.317 E235.15165
G0 F3600 X142.451 Y117.25
G1 F3000 X141.818 Y116.617 E235.19366
G0 F3600 X142.451 Y116.55
