;FLAVOR:Marlin
;TIME:10129
;Filament used: 29.6781m
;Layer height: 0.2
;MINX:213.862
;MINY:118.956
;MINZ:0.2
;MAXX:335.192
;MAXY:209.286
;MAXZ:22.8
;TARGET_MACHINE.NAME:VORON2 350
;Generated with Cura_SteamEngine 5.7.0


; Pre-Processed for Cancel-Object support by preprocess_cancellation v0.2.0
; 1 known objects
EXCLUDE_OBJECT_DEFINE NAME=Lee_primer_tray_holder_stl CENTER=307.210,167.059 POLYGON=[[214.724,119.82],[214.724,208.42],[334.324,208.42],[334.324,119.82]]
M82 ;absolute extrusion mode
; Script based on an original created by tjjfvi (https://github.com/tjjfvi)
; An up-to-date version of the tjjfvi's original script can be found
; here:  https://csi.t6.fyi/
; Note - This script will only work in Cura V4.2 and above!
; --- Global Settings
; layer_height = 0.2
; smooth_spiralized_contours = True
; magic_mesh_surface_mode = normal
; machine_extruder_count = 1
; --- Single Extruder Settings
; speed_z_hop = 10.0
; retraction_amount = 0.75
; retraction_hop = 0.2
; retraction_hop_enabled = False
; retraction_enable = True
; retraction_speed = 30
; retraction_retract_speed = 30
; retraction_prime_speed = 12
; speed_travel = 300.0
;CARTOGRAPHER_MODEL_SELECT NAME="StrucktDbl-Cold"
CARTOGRAPHER_MODEL_LIST
print_start EXTRUDER=245.0 BED=75.0 
; CHAMBER=0
G92 E0
G92 E0
G1 F1800 E-0.75
;LAYER_COUNT:114
;LAYER:0
M107
;MESH:Lee_primer_tray_holder.stl
EXCLUDE_OBJECT_START NAME=Lee_primer_tray_holder_stl
G0 F18000 X334.166 Y208.258 Z0.2
;TYPE:WALL-OUTER
G1 F720 E0
G1 F4500 X334.166 Y119.978 E3.69962
G1 X214.886 Y119.978 E8.69838
G1 X214.886 Y208.258 E12.39799
G1 X334.166 Y208.258 E17.39675
G0 F18000 X334.166 Y208.058
G0 X333.746 Y207.838
;TYPE:WALL-INNER
G1 F4500 X333.746 Y120.398 E21.06117
G1 X215.306 Y120.398 E26.02473
G1 X215.306 Y207.838 E29.68914
G1 X333.746 Y207.838 E34.6527
G0 F18000 X333.326 Y207.418
G1 F4500 X333.326 Y120.818 E38.28191
G1 X215.726 Y120.818 E43.21026
G1 X215.726 Y207.418 E46.83948
G1 X333.326 Y207.418 E51.76783
G0 F18000 X332.906 Y206.998
G1 F4500 X332.906 Y121.238 E55.36184
G1 X216.146 Y121.238 E60.25499
G1 X216.146 Y206.998 E63.849
G1 X332.906 Y206.998 E68.74215
G0 F18000 X332.506 Y206.598
;TYPE:SKIN
G1 F4500 X332.506 Y121.638 E72.30264
G1 X216.546 Y121.638 E77.16226
G1 X216.546 Y206.598 E80.72275
G1 X332.506 Y206.598 E85.58237
G1 F1800 E84.83237
G0 F18000 X332.796 Y206.598
G0 X332.796 Y122.03
G0 X332.296 Y122.03
G1 F720 E85.58237
G1 F4500 X332.113 Y121.848 E85.59319
G0 F18000 X331.519 Y121.848
G1 F4500 X332.296 Y122.624 E85.63921
G0 F18000 X332.296 Y123.218
G1 F4500 X330.925 Y121.848 E85.72043
G0 F18000 X330.331 Y121.848
G1 F4500 X332.296 Y123.812 E85.83686
G0 F18000 X332.296 Y124.406
G1 F4500 X329.737 Y121.848 E85.9885
G0 F18000 X329.143 Y121.848
G1 F4500 X332.296 Y125 E86.17533
G0 F18000 X332.296 Y125.594
G1 F4500 X328.549 Y121.848 E86.39738
G0 F18000 X327.955 Y121.848
G1 F4500 X332.296 Y126.188 E86.65462
G0 F18000 X332.296 Y126.782
G1 F4500 X327.361 Y121.848 E86.94707
G0 F18000 X326.767 Y121.848
G1 F4500 X332.296 Y127.376 E87.27473
G0 F18000 X332.296 Y127.97
G1 F4500 X326.174 Y121.848 E87.63756
G0 F18000 X325.58 Y121.848
G1 F4500 X332.296 Y128.564 E88.03559
G0 F18000 X332.296 Y129.158
G1 F4500 X324.986 Y121.848 E88.46883
G0 F18000 X324.392 Y121.848
G1 F4500 X332.296 Y129.752 E88.93727
G0 F18000 X332.296 Y130.346
G1 F4500 X323.798 Y121.848 E89.44092
G0 F18000 X323.204 Y121.848
G1 F4500 X332.296 Y130.94 E89.97977
G0 F18000 X332.296 Y131.534
G1 F4500 X322.61 Y121.848 E90.55383
G0 F18000 X322.016 Y121.848
G1 F4500 X332.296 Y132.128 E91.16309
G0 F18000 X332.296 Y132.722
G1 F4500 X321.422 Y121.848 E91.80755
G0 F18000 X320.828 Y121.848
G1 F4500 X332.296 Y133.316 E92.48722
G0 F18000 X332.296 Y133.91
G1 F4500 X320.234 Y121.848 E93.20209
G0 F18000 X319.64 Y121.848
G1 F4500 X332.296 Y134.504 E93.95217
G0 F18000 X332.296 Y135.098
G1 F4500 X319.046 Y121.848 E94.73745
G0 F18000 X318.452 Y121.848
G1 F4500 X332.296 Y135.692 E95.55794
G0 F18000 X332.296 Y136.286
G1 F4500 X317.858 Y121.848 E96.41363
G0 F18000 X317.264 Y121.848
G1 F4500 X332.296 Y136.88 E97.30452
G0 F18000 X332.296 Y137.474
G1 F4500 X316.67 Y121.848 E98.23062
G0 F18000 X316.076 Y121.848
G1 F4500 X332.296 Y138.068 E99.19192
G0 F18000 X332.296 Y138.662
G1 F4500 X315.482 Y121.848 E100.18843
G0 F18000 X314.888 Y121.848
G1 F4500 X332.296 Y139.255 E101.22011
G0 F18000 X332.296 Y139.849
G1 F4500 X314.294 Y121.848 E102.287
G0 F18000 X313.7 Y121.848
G1 F4500 X332.296 Y140.443 E103.38909
G0 F18000 X332.296 Y141.037
G1 F4500 X313.106 Y121.848 E104.52639
G0 F18000 X312.512 Y121.848
G1 F4500 X332.296 Y141.631 E105.69889
G0 F18000 X332.296 Y142.225
G1 F4500 X311.918 Y121.848 E106.90659
G0 F18000 X311.324 Y121.848
G1 F4500 X332.296 Y142.819 E108.1495
G0 F18000 X332.296 Y143.413
G1 F4500 X310.73 Y121.848 E109.42761
G0 F18000 X310.136 Y121.848
G1 F4500 X332.296 Y144.007 E110.74093
G0 F18000 X332.296 Y144.601
G1 F4500 X309.542 Y121.848 E112.08945
G0 F18000 X308.948 Y121.848
G1 F4500 X332.296 Y145.195 E113.47317
G0 F18000 X332.296 Y145.789
G1 F4500 X308.354 Y121.848 E114.8921
G0 F18000 X307.76 Y121.848
G1 F4500 X332.296 Y146.383 E116.34624
G0 F18000 X332.296 Y146.977
G1 F4500 X307.166 Y121.848 E117.83558
G0 F18000 X306.573 Y121.848
G1 F4500 X332.296 Y147.571 E119.36009
G0 F18000 X332.296 Y148.165
G1 F4500 X305.979 Y121.848 E120.91981
G0 F18000 X305.385 Y121.848
G1 F4500 X332.296 Y148.759 E122.51473
G0 F18000 X332.296 Y149.353
G1 F4500 X304.791 Y121.848 E124.14486
G0 F18000 X304.197 Y121.848
G1 F4500 X332.296 Y149.947 E125.81019
G0 F18000 X332.296 Y150.541
G1 F4500 X303.603 Y121.848 E127.51072
G0 F18000 X303.009 Y121.848
G1 F4500 X332.296 Y151.135 E129.24646
G0 F18000 X332.296 Y151.729
G1 F4500 X302.415 Y121.848 E131.0174
G0 F18000 X301.821 Y121.848
G1 F4500 X332.296 Y152.323 E132.82355
G0 F18000 X332.296 Y152.917
G1 F4500 X301.227 Y121.848 E134.6649
G0 F18000 X300.633 Y121.848
G1 F4500 X332.296 Y153.511 E136.54146
G0 F18000 X332.296 Y154.105
G1 F4500 X300.039 Y121.848 E138.45322
G0 F18000 X299.445 Y121.848
G1 F4500 X332.296 Y154.699 E140.40018
G0 F18000 X332.296 Y155.293
G1 F4500 X298.851 Y121.848 E142.38235
G0 F18000 X298.257 Y121.848
G1 F4500 X332.296 Y155.887 E144.39973
G0 F18000 X332.296 Y156.481
G1 F4500 X297.663 Y121.848 E146.45231
G0 F18000 X297.069 Y121.848
G1 F4500 X332.296 Y157.075 E148.54009
G0 F18000 X332.296 Y157.669
G1 F4500 X296.475 Y121.848 E150.66307
G0 F18000 X295.881 Y121.848
G1 F4500 X332.296 Y158.263 E152.82127
G0 F18000 X332.296 Y158.856
G1 F4500 X295.287 Y121.848 E155.01463
G0 F18000 X294.693 Y121.848
G1 F4500 X332.296 Y159.45 E157.2432
G0 F18000 X332.296 Y160.044
G1 F4500 X294.099 Y121.848 E159.50698
G0 F18000 X293.505 Y121.848
G1 F4500 X332.296 Y160.638 E161.80595
G0 F18000 X332.296 Y161.232
G1 F4500 X292.911 Y121.848 E164.14014
G0 F18000 X292.317 Y121.848
G1 F4500 X332.296 Y161.826 E166.50952
G0 F18000 X332.296 Y162.42
G1 F4500 X291.723 Y121.848 E168.91412
G0 F18000 X291.129 Y121.848
G1 F4500 X332.296 Y163.014 E171.35391
G0 F18000 X332.296 Y163.608
G1 F4500 X290.535 Y121.848 E173.82891
G0 F18000 X289.941 Y121.848
G1 F4500 X332.296 Y164.202 E176.33912
G0 F18000 X332.296 Y164.796
G1 F4500 X289.347 Y121.848 E178.88453
G0 F18000 X288.753 Y121.848
G1 F4500 X332.296 Y165.39 E181.46514
G0 F18000 X332.296 Y165.984
G1 F4500 X288.159 Y121.848 E184.08096
G0 F18000 X287.565 Y121.848
G1 F4500 X332.296 Y166.578 E186.73198
G0 F18000 X332.296 Y167.172
G1 F4500 X286.972 Y121.848 E189.41817
G0 F18000 X286.378 Y121.848
G1 F4500 X332.296 Y167.766 E192.13958
G0 F18000 X332.296 Y168.36
G1 F4500 X285.784 Y121.848 E194.89618
G0 F18000 X285.19 Y121.848
G1 F4500 X332.296 Y168.954 E197.68799
G0 F18000 X332.296 Y169.548
G1 F4500 X284.596 Y121.848 E200.515
G0 F18000 X284.002 Y121.848
G1 F4500 X332.296 Y170.142 E203.37722
G0 F18000 X332.296 Y170.736
G1 F4500 X283.408 Y121.848 E206.27464
G0 F18000 X282.814 Y121.848
G1 F4500 X332.296 Y171.33 E209.20727
G0 F18000 X332.296 Y171.924
G1 F4500 X282.22 Y121.848 E212.1751
G0 F18000 X281.626 Y121.848
G1 F4500 X332.296 Y172.518 E215.17814
G0 F18000 X332.296 Y173.112
G1 F4500 X281.032 Y121.848 E218.21638
G0 F18000 X280.438 Y121.848
G1 F4500 X332.296 Y173.706 E221.28982
G0 F18000 X332.296 Y174.3
G1 F4500 X279.844 Y121.848 E224.39847
G0 F18000 X279.25 Y121.848
G1 F4500 X332.296 Y174.894 E227.54232
G0 F18000 X332.296 Y175.488
G1 F4500 X278.656 Y121.848 E230.72138
G0 F18000 X278.062 Y121.848
G1 F4500 X332.296 Y176.082 E233.93564
G0 F18000 X332.296 Y176.676
G1 F4500 X277.468 Y121.848 E237.18511
G0 F18000 X276.874 Y121.848
G1 F4500 X332.296 Y177.27 E240.46978
G0 F18000 X332.296 Y177.864
G1 F4500 X276.28 Y121.848 E243.78965
G0 F18000 X275.686 Y121.848
G1 F4500 X332.296 Y178.457 E247.1447
G0 F18000 X332.296 Y179.051
G1 F4500 X275.092 Y121.848 E250.53495
G0 F18000 X274.498 Y121.848
G1 F4500 X332.296 Y179.645 E253.96041
G0 F18000 X332.296 Y180.239
G1 F4500 X273.904 Y121.848 E257.42107
G0 F18000 X273.31 Y121.848
G1 F4500 X332.296 Y180.833 E260.91694
G0 F18000 X332.296 Y181.427
G1 F4500 X272.716 Y121.848 E264.44801
G0 F18000 X272.122 Y121.848
G1 F4500 X332.296 Y182.021 E268.01428
G0 F18000 X332.296 Y182.615
G1 F4500 X271.528 Y121.848 E271.61576
G0 F18000 X270.934 Y121.848
G1 F4500 X332.296 Y183.209 E275.25245
G0 F18000 X332.296 Y183.803
G1 F4500 X270.34 Y121.848 E278.92434
G0 F18000 X269.746 Y121.848
G1 F4500 X332.296 Y184.397 E282.63143
G0 F18000 X332.296 Y184.991
G1 F4500 X269.152 Y121.848 E286.37372
G0 F18000 X268.558 Y121.848
G1 F4500 X332.296 Y185.585 E290.15123
G0 F18000 X332.296 Y186.179
G1 F4500 X267.964 Y121.848 E293.96393
G0 F18000 X267.371 Y121.848
G1 F4500 X332.296 Y186.773 E297.81181
G0 F18000 X332.296 Y187.367
G1 F4500 X266.777 Y121.848 E301.69489
G0 F18000 X266.183 Y121.848
G1 F4500 X332.296 Y187.961 E305.61318
G0 F18000 X332.296 Y188.555
G1 F4500 X265.589 Y121.848 E309.56668
G0 F18000 X264.995 Y121.848
G1 F4500 X332.296 Y189.149 E313.55537
G0 F18000 X332.296 Y189.743
G1 F4500 X264.401 Y121.848 E317.57927
G0 F18000 X263.807 Y121.848
G1 F4500 X332.296 Y190.337 E321.63838
G0 F18000 X332.296 Y190.931
G1 F4500 X263.213 Y121.848 E325.73269
G0 F18000 X262.619 Y121.848
G1 F4500 X332.296 Y191.525 E329.86221
G0 F18000 X332.296 Y192.119
G1 F4500 X262.025 Y121.848 E334.02692
G0 F18000 X261.431 Y121.848
G1 F4500 X332.296 Y192.713 E338.22685
G0 F18000 X332.296 Y193.307
G1 F4500 X260.837 Y121.848 E342.46197
G0 F18000 X260.243 Y121.848
G1 F4500 X332.296 Y193.901 E346.73231
G0 F18000 X332.296 Y194.495
G1 F4500 X259.649 Y121.848 E351.03784
G0 F18000 X259.055 Y121.848
G1 F4500 X332.296 Y195.089 E355.37858
G0 F18000 X332.296 Y195.683
G1 F4500 X258.461 Y121.848 E359.75453
G0 F18000 X257.867 Y121.848
G1 F4500 X332.296 Y196.277 E364.16568
G0 F18000 X332.296 Y196.871
G1 F4500 X257.273 Y121.848 E368.61203
G0 F18000 X256.679 Y121.848
G1 F4500 X332.296 Y197.465 E373.09359
G0 F18000 X332.296 Y198.058
G1 F4500 X256.085 Y121.848 E377.61032
G0 F18000 X255.491 Y121.848
G1 F4500 X332.296 Y198.652 E382.16226
G0 F18000 X332.296 Y199.246
G1 F4500 X254.897 Y121.848 E386.7494
G0 F18000 X254.303 Y121.848
G1 F4500 X332.296 Y199.84 E391.37174
G0 F18000 X332.296 Y200.434
G1 F4500 X253.709 Y121.848 E396.02929
G0 F18000 X253.115 Y121.848
G1 F4500 X332.296 Y201.028 E400.72205
G0 F18000 X332.296 Y201.622
G1 F4500 X252.521 Y121.848 E405.45001
G0 F18000 X251.927 Y121.848
G1 F4500 X332.296 Y202.216 E410.21317
G0 F18000 X332.296 Y202.81
G1 F4500 X251.333 Y121.848 E415.01154
G0 F18000 X250.739 Y121.848
G1 F4500 X332.296 Y203.404 E419.84511
G0 F18000 X332.296 Y203.998
G1 F4500 X250.145 Y121.848 E424.71388
G0 F18000 X249.551 Y121.848
G1 F4500 X332.296 Y204.592 E429.61786
G0 F18000 X332.296 Y205.186
G1 F4500 X248.957 Y121.848 E434.55705
G0 F18000 X248.363 Y121.848
G1 F4500 X332.296 Y205.78 E439.53144
G0 F18000 X332.296 Y206.374
G1 F4500 X247.77 Y121.848 E444.541
G0 F18000 X247.176 Y121.848
G1 F4500 X331.716 Y206.388 E449.55139
G0 F18000 X331.122 Y206.388
G1 F4500 X246.582 Y121.848 E454.56178
G0 F18000 X245.988 Y121.848
G1 F4500 X330.528 Y206.388 E459.57218
G0 F18000 X329.934 Y206.388
G1 F4500 X245.394 Y121.848 E464.58257
G0 F18000 X244.8 Y121.848
G1 F4500 X329.34 Y206.388 E469.59296
G0 F18000 X328.746 Y206.388
G1 F4500 X244.206 Y121.848 E474.60336
G0 F18000 X243.612 Y121.848
G1 F4500 X328.152 Y206.388 E479.61375
G0 F18000 X327.558 Y206.388
G1 F4500 X243.018 Y121.848 E484.62414
G0 F18000 X242.424 Y121.848
G1 F4500 X326.964 Y206.388 E489.63454
G0 F18000 X326.37 Y206.388
G1 F4500 X241.83 Y121.848 E494.64493
G0 F18000 X241.236 Y121.848
G1 F4500 X325.776 Y206.388 E499.65532
G0 F18000 X325.182 Y206.388
G1 F4500 X240.642 Y121.848 E504.66572
G0 F18000 X240.048 Y121.848
G1 F4500 X324.588 Y206.388 E509.67611
G0 F18000 X323.994 Y206.388
G1 F4500 X239.454 Y121.848 E514.6865
G0 F18000 X238.86 Y121.848
G1 F4500 X323.4 Y206.388 E519.69689
G0 F18000 X322.806 Y206.388
G1 F4500 X238.266 Y121.848 E524.70729
G0 F18000 X237.672 Y121.848
G1 F4500 X322.212 Y206.388 E529.71768
G0 F18000 X321.618 Y206.388
G1 F4500 X237.078 Y121.848 E534.72807
G0 F18000 X236.484 Y121.848
G1 F4500 X321.024 Y206.388 E539.73847
G0 F18000 X320.43 Y206.388
G1 F4500 X235.89 Y121.848 E544.74886
G0 F18000 X235.296 Y121.848
G1 F4500 X319.836 Y206.388 E549.75925
G0 F18000 X319.242 Y206.388
G1 F4500 X234.702 Y121.848 E554.76965
G0 F18000 X234.108 Y121.848
G1 F4500 X318.648 Y206.388 E559.78004
G0 F18000 X318.055 Y206.388
G1 F4500 X233.514 Y121.848 E564.79046
G0 F18000 X232.92 Y121.848
G1 F4500 X317.461 Y206.388 E569.80088
G0 F18000 X316.867 Y206.388
G1 F4500 X232.326 Y121.848 E574.81131
G0 F18000 X231.732 Y121.848
G1 F4500 X316.273 Y206.388 E579.82173
G0 F18000 X315.679 Y206.388
G1 F4500 X231.138 Y121.848 E584.83215
G0 F18000 X230.544 Y121.848
G1 F4500 X315.085 Y206.388 E589.84257
G0 F18000 X314.491 Y206.388
G1 F4500 X229.95 Y121.848 E594.853
G0 F18000 X229.356 Y121.848
G1 F4500 X313.897 Y206.388 E599.86342
G0 F18000 X313.303 Y206.388
G1 F4500 X228.762 Y121.848 E604.87384
G0 F18000 X228.169 Y121.848
G1 F4500 X312.709 Y206.388 E609.88424
G0 F18000 X312.115 Y206.388
G1 F4500 X227.575 Y121.848 E614.89463
G0 F18000 X226.981 Y121.848
G1 F4500 X311.521 Y206.388 E619.90502
G0 F18000 X310.927 Y206.388
G1 F4500 X226.387 Y121.848 E624.91541
G0 F18000 X225.793 Y121.848
G1 F4500 X310.333 Y206.388 E629.92581
G0 F18000 X309.739 Y206.388
G1 F4500 X225.199 Y121.848 E634.9362
G0 F18000 X224.605 Y121.848
G1 F4500 X309.145 Y206.388 E639.94659
G0 F18000 X308.551 Y206.388
G1 F4500 X224.011 Y121.848 E644.95699
G0 F18000 X223.417 Y121.848
G1 F4500 X307.957 Y206.388 E649.96738
G0 F18000 X307.363 Y206.388
G1 F4500 X222.823 Y121.848 E654.97777
G0 F18000 X222.229 Y121.848
G1 F4500 X306.769 Y206.388 E659.98817
G0 F18000 X306.175 Y206.388
G1 F4500 X221.635 Y121.848 E664.99856
G0 F18000 X221.041 Y121.848
G1 F4500 X305.581 Y206.388 E670.00895
G0 F18000 X304.987 Y206.388
G1 F4500 X220.447 Y121.848 E675.01934
G0 F18000 X219.853 Y121.848
G1 F4500 X304.393 Y206.388 E680.02974
G0 F18000 X303.799 Y206.388
G1 F4500 X219.259 Y121.848 E685.04013
G0 F18000 X218.665 Y121.848
G1 F4500 X303.205 Y206.388 E690.05052
G0 F18000 X302.611 Y206.388
G1 F4500 X218.071 Y121.848 E695.06092
G0 F18000 X217.477 Y121.848
G1 F4500 X302.017 Y206.388 E700.07131
G0 F18000 X301.423 Y206.388
G1 F4500 X216.883 Y121.848 E705.0817
G0 F18000 X216.756 Y122.315
G1 F4500 X300.829 Y206.388 E710.06442
G0 F18000 X300.235 Y206.388
G1 F4500 X216.756 Y122.909 E715.01193
G0 F18000 X216.756 Y123.503
G1 F4500 X299.641 Y206.388 E719.92424
G0 F18000 X299.047 Y206.388
G1 F4500 X216.756 Y124.097 E724.80134
G0 F18000 X216.756 Y124.691
G1 F4500 X298.454 Y206.388 E729.64327
G0 F18000 X297.86 Y206.388
G1 F4500 X216.756 Y125.284 E734.45002
G0 F18000 X216.756 Y125.878
G1 F4500 X297.266 Y206.388 E739.22157
G0 F18000 X296.672 Y206.388
G1 F4500 X216.756 Y126.472 E743.95791
G0 F18000 X216.756 Y127.066
G1 F4500 X296.078 Y206.388 E748.65905
G0 F18000 X295.484 Y206.388
G1 F4500 X216.756 Y127.66 E753.32499
G0 F18000 X216.756 Y128.254
G1 F4500 X294.89 Y206.388 E757.95572
G0 F18000 X294.296 Y206.388
G1 F4500 X216.756 Y128.848 E762.55125
G0 F18000 X216.756 Y129.442
G1 F4500 X293.702 Y206.388 E767.11157
