;FLAVOR:Marlin
;TIME:4042
;Filament used: 7.59898m
;Layer height: 0.2
;MINX:132.81
;MINY:124.94
;MINZ:0.2
;MAXX:216.288
;MAXY:225.056
;MAXZ:12.2
;TARGET_MACHINE.NAME:VORON2 350
;Generated with Cura_SteamEngine 5.7.0


; Pre-Processed for Cancel-Object support by preprocess_cancellation v0.2.0
; 2 known objects
EXCLUDE_OBJECT_DEFINE NAME=StromIRV21_Deckel_stl CENTER=178.038,140.242 POLYGON=[[137.676,124.94],[137.676,156.54],[212.28,156.54],[212.28,124.94]]
EXCLUDE_OBJECT_DEFINE NAME=StromIRV21_stl CENTER=188.497,191.449 POLYGON=[[132.81,158.456],[132.81,225.056],[216.288,225.056],[216.288,158.456]]
M82 ;absolute extrusion mode
; Script based on an original created by tjjfvi (https://github.com/tjjfvi)
; An up-to-date version of the tjjfvi's original script can be found
; here:  https://csi.t6.fyi/
; Note - This script will only work in Cura V4.2 and above!
; --- Global Settings
; layer_height = 0.2
; smooth_spiralized_contours = True
; magic_mesh_surface_mode = normal
; machine_extruder_count = 1
; --- Single Extruder Settings
; speed_z_hop = 10
; retraction_amount = 0.75
; retraction_hop = 0.2
; retraction_hop_enabled = True
; retraction_enable = True
; retraction_speed = 30
; retraction_retract_speed = 30
; retraction_prime_speed = 12
; speed_travel = 150.0
;CARTOGRAPHER_MODEL_SELECT NAME="StrucktDbl-Cold"
CARTOGRAPHER_MODEL_LIST
print_start EXTRUDER=245 BED=85.0 
; CHAMBER=0
G92 E0
G92 E0
G1 F1800 E-0.75
;LAYER_COUNT:61
;LAYER:0
M107
G1 F600 Z0.4
G0 F3600 X132.833 Y175.231 Z0.4
;TYPE:SKIRT
G1 F600 Z0.2
G1 F720 E0
G1 F3000 X157.551 Y175.23 E0.96651
G1 X157.643 Y175.31 E0.97128
G1 X157.747 Y175.333 E0.97544
G1 X157.755 Y175.333 E0.97575
G1 X157.763 Y175.359 E0.97682
G1 X157.884 Y175.457 E0.98291
G1 X157.949 Y175.482 E0.98563
G1 X157.949 Y208.278 E2.268
G1 X157.861 Y208.322 E2.27185
G1 X157.759 Y208.417 E2.2773
G1 X157.755 Y208.432 E2.2779
G1 X157.747 Y208.432 E2.27822
G1 X157.613 Y208.471 E2.28367
G1 X157.558 Y208.535 E2.28697
G1 X132.834 Y208.534 E3.25372
G1 X132.833 Y175.231 E4.55591
G0 F3600 X133.328 Y175.726
G1 F3000 X157.383 Y175.725 E5.4965
G1 X157.454 Y175.757 E5.49954
G1 X157.454 Y208.005 E6.76049
G1 X157.39 Y208.04 E6.76334
G1 X133.329 Y208.039 E7.70416
G1 X133.328 Y175.726 E8.96765
G0 F3600 X133.823 Y176.221
G1 F3000 X156.959 Y176.22 E9.8723
G1 X156.959 Y207.545 E11.09715
G1 X133.824 Y207.544 E12.00176
G1 X133.823 Y176.221 E13.22654
G0 F3600 X134.293 Y176.693
;TYPE:SUPPORT
G1 F3300 X134.293 Y207.071 E14.30638
G1 X156.107 Y207.071 E15.08179
G1 X156.152 Y206.994 E15.08496
G1 X156.26 Y206.967 E15.08892
G1 X156.487 Y206.967 E15.09699
G1 X156.487 Y176.793 E16.16958
G1 X156.26 Y176.793 E16.17765
G1 X156.152 Y176.767 E16.1816
G1 X156.107 Y176.69 E16.18477
G1 X134.293 Y176.693 E16.96018
G0 F3600 X134.475 Y177
G1 F3000 X156.303 Y177 E17.81369
G0 F3600 X156 Y176.872
G1 F3000 X156 Y206.889 E18.9874
G1 F1800 E18.2374
G1 F600 Z0.4
G0 F3600 X156.303 Y204 Z0.4
G1 F600 Z0.2
G1 F720 E18.9874
G1 F3000 X134.475 Y204 E19.8409
G1 F1800 E19.0909
G1 F600 Z0.4
G0 F3600 X135 Y206.889 Z0.4
G1 F600 Z0.2
G1 F720 E19.8409
G1 F3000 X135 Y176.874 E21.01453
G1 F1800 E20.26453
G1 F600 Z0.4
G0 F3600 X138 Y176.874 Z0.4
G1 F600 Z0.2
G1 F720 E21.01453
G1 F3000 X138 Y206.889 E22.18816
G1 F1800 E21.43816
G1 F600 Z0.4
G0 F3600 X141 Y206.889 Z0.4
G1 F600 Z0.2
G1 F720 E22.18816
G1 F3000 X141 Y176.874 E23.36179
G1 F1800 E22.61179
G1 F600 Z0.4
G0 F3600 X144 Y176.873 Z0.4
G1 F600 Z0.2
G1 F720 E23.36179
G1 F3000 X144 Y206.889 E24.53546
G1 F1800 E23.78546
G1 F600 Z0.4
G0 F3600 X147 Y206.889 Z0.4
G1 F600 Z0.2
G1 F720 E24.53546
G1 F3000 X147 Y176.873 E25.70913
G1 F1800 E24.95913
G1 F600 Z0.4
G0 F3600 X150 Y176.872 Z0.4
G1 F600 Z0.2
G1 F720 E25.70913
G1 F3000 X150 Y206.889 E26.88284
G1 F1800 E26.13284
G1 F600 Z0.4
G0 F3600 X153 Y206.889 Z0.4
G1 F600 Z0.2
G1 F720 E26.88284
G1 F3000 X153 Y176.872 E28.05655
G1 F1800 E27.30655
G1 F600 Z0.4
G0 F3600 X156.303 Y180 Z0.4
G1 F600 Z0.2
G1 F720 E28.05655
G1 F3000 X134.475 Y180 E28.91005
G1 F1800 E28.16005
G1 F600 Z0.4
G0 F3600 X134.475 Y183 Z0.4
G1 F600 Z0.2
G1 F720 E28.91005
G1 F3000 X156.303 Y183 E29.76356
G1 F1800 E29.01356
G1 F600 Z0.4
G0 F3600 X156.303 Y186 Z0.4
G1 F600 Z0.2
G1 F720 E29.76356
G1 F3000 X134.475 Y186 E30.61707
G1 F1800 E29.86707
G1 F600 Z0.4
G0 F3600 X134.475 Y189 Z0.4
G1 F600 Z0.2
G1 F720 E30.61707
G1 F3000 X156.303 Y189 E31.47057
G1 F1800 E30.72057
G1 F600 Z0.4
G0 F3600 X156.303 Y192 Z0.4
G1 F600 Z0.2
G1 F720 E31.47057
G1 F3000 X134.475 Y192 E32.32408
G1 F1800 E31.57408
G1 F600 Z0.4
G0 F3600 X134.475 Y195 Z0.4
G1 F600 Z0.2
G1 F720 E32.32408
G1 F3000 X156.303 Y195 E33.17759
G1 F1800 E32.42759
G1 F600 Z0.4
G0 F3600 X156.303 Y198 Z0.4
G1 F600 Z0.2
G1 F720 E33.17759
G1 F3000 X134.475 Y198 E34.03109
G1 F1800 E33.28109
G1 F600 Z0.4
G0 F3600 X134.475 Y201 Z0.4
G1 F600 Z0.2
G1 F720 E34.03109
G1 F3000 X156.303 Y201 E34.8846
G1 F1800 E34.1346
G1 F600 Z0.4
;MESH:StromIRV21-Deckel.stl
EXCLUDE_OBJECT_START NAME=StromIRV21_Deckel_stl
G0 F3600 X150.758 Y142.684 Z0.4
;TYPE:WALL-OUTER
G1 F600 Z0.2
G1 F720 E34.8846
G1 F3000 X150.715 Y142.67 E34.88617
G1 X150.661 Y142.636 E34.88839
G1 X150.631 Y142.605 E34.88989
G1 X150.596 Y142.543 E34.89236
G1 X150.585 Y142.494 E34.89411
G1 X150.587 Y133.377 E35.21099
G1 X150.601 Y133.329 E35.21272
G1 X150.634 Y133.275 E35.21492
G1 X150.688 Y133.228 E35.21741
G1 X150.762 Y133.199 E35.22017
G1 X160.416 Y133.199 E35.55572
G1 X160.487 Y133.225 E35.55834
G1 X160.561 Y133.295 E35.56188
G1 X160.592 Y133.37 E35.56471
G1 X160.596 Y142.486 E35.88155
G1 X160.578 Y142.557 E35.88409
G1 X160.535 Y142.621 E35.88677
G1 X160.504 Y142.648 E35.8882
G1 X160.445 Y142.678 E35.8905
G1 X160.4 Y142.687 E35.8921
G1 X150.758 Y142.684 E36.22722
G0 F3600 X150.715 Y142.67
G0 X150.661 Y142.636
G0 X150.631 Y142.605
G0 X150.608 Y142.564
G1 F1800 E35.47722
G1 F600 Z0.4
G0 F3600 X149.567 Y142.564 Z0.4
G0 X202.097 Y143.925
G1 F600 Z0.2
G1 F720 E36.22722
G1 F3000 X201.976 Y143.96 E36.2316
G1 X175.956 Y143.96 E37.13598
G1 X175.839 Y143.913 E37.14036
G1 X175.789 Y143.858 E37.14294
G1 X175.76 Y143.786 E37.14564
G1 X175.76 Y141.693 E37.21839
G1 X175.791 Y141.62 E37.22114
G1 X175.841 Y141.566 E37.2237
G1 X175.956 Y141.52 E37.228
G1 X201.976 Y141.52 E38.13238
G1 X202.097 Y141.555 E38.13676
G1 X202.151 Y141.605 E38.13931
G1 X202.193 Y141.698 E38.14286
G1 X202.193 Y143.782 E38.21529
G1 X202.151 Y143.875 E38.21884
G1 X202.097 Y143.925 E38.2214
G0 F3600 X201.976 Y143.96
G0 X201.902 Y143.96
G0 X201.902 Y144.643
G0 X202.807 Y144.571
G0 X202.807 Y140.915
G0 X202.097 Y140.643
G0 X202.097 Y139.925
G1 F3000 X201.976 Y139.96 E38.22578
G1 X175.956 Y139.96 E39.13015
G1 X175.841 Y139.914 E39.13445
G1 X175.791 Y139.86 E39.13701
G1 X175.76 Y139.787 E39.13977
G1 X175.76 Y137.693 E39.21255
G1 X175.791 Y137.62 E39.21531
G1 X175.841 Y137.566 E39.21786
G1 X175.956 Y137.52 E39.22217
G1 X201.976 Y137.52 E40.12654
G1 X202.097 Y137.555 E40.13092
G1 X202.151 Y137.605 E40.13348
G1 X202.193 Y137.698 E40.13702
G1 X202.193 Y139.782 E40.20946
G1 X202.151 Y139.875 E40.213
G1 X202.097 Y139.925 E40.21556
G0 F3600 X201.976 Y139.96
G0 X201.902 Y139.96
G0 X201.902 Y140.643
G0 X202.807 Y140.571
G0 X202.807 Y136.915
G0 X202.097 Y136.643
G0 X202.097 Y135.925
G1 F3000 X201.976 Y135.96 E40.21994
G1 X175.956 Y135.96 E41.12431
G1 X175.841 Y135.914 E41.12862
G1 X175.791 Y135.86 E41.13118
G1 X175.757 Y135.769 E41.13455
G1 X175.756 Y133.719 E41.2058
G1 X175.781 Y133.637 E41.20878
G1 X175.815 Y133.589 E41.21083
G1 X175.869 Y133.547 E41.21321
G1 X175.938 Y133.523 E41.21574
G1 X202.015 Y133.523 E42.1221
G1 X202.085 Y133.548 E42.12468
G1 X202.139 Y133.591 E42.12708
G1 X202.174 Y133.643 E42.12926
G1 X202.194 Y133.706 E42.13156
G1 X202.193 Y135.782 E42.20371
G1 X202.151 Y135.875 E42.20726
G1 X202.097 Y135.925 E42.20982
G0 F3600 X201.976 Y135.96
G0 X201.902 Y135.96
G1 F1800 E41.45982
G0 F3600 X201.902 Y136.643
G0 X202.807 Y136.915
G0 X202.807 Y148.571
G0 X202.014 Y148.643
G0 X202.014 Y147.957
G1 F720 E42.20982
G1 F3000 X175.937 Y147.957 E43.11617
G1 X175.9 Y147.947 E43.1175
G1 X175.837 Y147.911 E43.12003
G1 X175.778 Y147.838 E43.12329
G1 X175.757 Y147.767 E43.12586
G1 X175.757 Y145.712 E43.19729
G1 X175.789 Y145.622 E43.20061
G1 X175.839 Y145.567 E43.20319
G1 X175.956 Y145.52 E43.20757
G1 X201.976 Y145.52 E44.11195
G1 X202.097 Y145.555 E44.11632
G1 X202.151 Y145.605 E44.11888
G1 X202.193 Y145.698 E44.12243
G1 X202.196 Y147.74 E44.1934
G1 X202.186 Y147.807 E44.19576
G1 X202.158 Y147.865 E44.19799
G1 X202.114 Y147.912 E44.20023
G1 X202.052 Y147.947 E44.20271
G1 X202.014 Y147.957 E44.20407
G0 F3600 X201.814 Y147.957
G1 F1800 E43.45407
G1 F600 Z0.4
G0 F3600 X201.814 Y148.983 Z0.4
G0 X212.26 Y156.52
G1 F600 Z0.2
G1 F720 E44.20407
G1 F3000 X212.26 Y124.96 E45.301
G1 X137.697 Y124.961 E47.89257
G1 X137.696 Y156.52 E48.98946
G1 X212.26 Y156.52 E51.58107
G0 F3600 X212.26 Y156.32
G0 X211.82 Y156.08
;TYPE:WALL-INNER
G1 F3000 X211.82 Y125.4 E52.64741
G1 X138.137 Y125.401 E55.2084
G1 X138.136 Y156.08 E56.27471
G1 X211.82 Y156.08 E58.83573
G0 F3600 X211.38 Y155.64
G1 F3000 X211.38 Y125.84 E59.87148
G1 X138.577 Y125.841 E62.40189
G1 X138.576 Y155.64 E63.4376
G1 X211.38 Y155.64 E65.96804
G0 F3600 X210.94 Y155.2
G1 F3000 X210.94 Y126.28 E66.97321
G1 X139.017 Y126.281 E69.47303
G1 X139.016 Y155.2 E70.47816
G1 X210.94 Y155.2 E72.97801
G1 F1800 E72.22801
G1 F600 Z0.4
G0 F3600 X211.031 Y155.291 Z0.4
G0 X202.302 Y148.315
G1 F600 Z0.2
G1 F720 E72.97801
G1 F3000 X202.202 Y148.361 E72.98184
G1 X202.09 Y148.391 E72.98587
G1 X201.976 Y148.4 E72.98984
G1 X175.976 Y148.4 E73.89352
G1 X175.859 Y148.39 E73.8976
G1 X175.749 Y148.36 E73.90156
G1 X175.648 Y148.313 E73.90543
G1 X175.56 Y148.253 E73.90914
G1 X175.487 Y148.184 E73.91263
G1 X175.428 Y148.11 E73.91592
G1 X175.384 Y148.034 E73.91897
G1 X175.332 Y147.888 E73.92436
G1 X175.32 Y147.82 E73.92676
G1 X175.317 Y145.699 E74.00048
G1 X175.33 Y145.604 E74.00381
G1 X175.367 Y145.484 E74.00817
G1 X175.417 Y145.388 E74.01193
G1 X175.565 Y145.222 E74.01966
G1 F2629.5 X175.913 Y145.02 E74.03562
G1 F2348.8 X201.976 Y145.02 E75.19266
G1 F2640 X202.337 Y145.186 E75.20835
G1 F3000 X202.5 Y145.337 E75.21608
G1 X202.564 Y145.439 E75.22026
G1 X202.625 Y145.615 E75.22674
G1 X202.636 Y145.74 E75.2311
G1 X202.636 Y147.74 E75.30061
G1 X202.627 Y147.855 E75.30462
G1 X202.606 Y147.94 E75.30766
G1 X202.569 Y148.031 E75.31108
G1 X202.521 Y148.113 E75.31438
G1 X202.463 Y148.187 E75.31765
G1 X202.39 Y148.255 E75.32112
G1 X202.302 Y148.315 E75.32482
G0 F3600 X202.519 Y148.697
G1 F3000 X202.352 Y148.775 E75.33122
G1 X202.166 Y148.824 E75.33791
G1 X201.976 Y148.84 E75.34454
G1 X175.976 Y148.84 E76.24821
G1 X175.782 Y148.823 E76.25498
G1 X175.598 Y148.773 E76.26161
G1 X175.429 Y148.695 E76.26808
G1 X175.283 Y148.595 E76.27423
G1 X175.161 Y148.48 E76.28006
G1 X175.064 Y148.356 E76.28553
G1 X174.99 Y148.23 E76.29061
G1 X174.938 Y148.105 E76.29531
G1 X174.903 Y147.986 E76.29963
G1 X174.876 Y147.769 E76.30723
G1 X174.878 Y145.671 E76.38015
G1 X174.899 Y145.513 E76.38569
G1 X174.962 Y145.313 E76.39297
G1 X175.045 Y145.153 E76.39924
G1 X175.292 Y144.877 E76.41211
G1 X175.639 Y144.74 E76.42508
G1 X175.292 Y144.603 E76.43804
G1 X175.045 Y144.327 E76.45092
G1 X174.962 Y144.167 E76.45718
G1 X174.899 Y143.967 E76.46447
G1 X174.878 Y143.81 E76.46998
G1 X174.876 Y141.74 E76.54192
G1 X174.884 Y141.599 E76.54683
G1 X174.928 Y141.402 E76.55385
G1 X174.965 Y141.306 E76.55742
G1 X175.051 Y141.144 E76.5638
G1 X175.301 Y140.871 E76.57666
G1 X175.636 Y140.74 E76.58917
G1 X175.301 Y140.609 E76.60167
G1 X175.051 Y140.336 E76.61453
G1 X174.965 Y140.174 E76.62091
G1 X174.91 Y140.015 E76.62676
G1 X174.884 Y139.881 E76.6315
G1 X174.876 Y139.74 E76.63641
G1 X174.876 Y137.74 E76.70592
G1 X174.884 Y137.599 E76.71083
G1 X174.928 Y137.402 E76.71785
G1 X174.965 Y137.306 E76.72142
G1 X175.051 Y137.144 E76.7278
G1 X175.301 Y136.871 E76.74066
G1 X175.636 Y136.74 E76.75317
G1 X175.301 Y136.609 E76.76567
G1 X175.051 Y136.336 E76.77854
G1 X174.965 Y136.174 E76.78491
G1 X174.91 Y136.015 E76.79076
G1 X174.884 Y135.881 E76.7955
G1 X174.876 Y135.74 E76.80041
G1 X174.876 Y133.694 E76.87152
G1 X174.909 Y133.469 E76.87943
G1 X174.946 Y133.351 E76.88373
G1 X175.001 Y133.229 E76.88838
G1 X175.076 Y133.106 E76.89338
G1 X175.174 Y132.986 E76.89877
G1 X175.296 Y132.874 E76.90452
G1 X175.441 Y132.778 E76.91057
G1 X175.606 Y132.703 E76.91687
G1 X175.787 Y132.656 E76.92337
G1 X175.976 Y132.64 E76.92996
G1 X201.976 Y132.64 E77.83364
G1 X202.169 Y132.656 E77.84037
G1 X202.352 Y132.706 E77.84696
G1 X202.519 Y132.783 E77.85335
G1 X202.665 Y132.882 E77.85949
G1 X202.787 Y132.996 E77.86529
G1 X202.885 Y133.119 E77.87076
G1 X202.964 Y133.255 E77.87622
G1 X203.025 Y133.407 E77.88191
G1 X203.064 Y133.57 E77.88774
G1 X203.076 Y133.74 E77.89366
G1 X203.076 Y135.74 E77.96318
G1 X203.06 Y135.931 E77.96984
G1 X203.028 Y136.064 E77.97459
G1 X202.956 Y136.242 E77.98127
G1 X202.849 Y136.411 E77.98822
G1 X202.577 Y136.663 E78.00111
G1 X202.314 Y136.74 E78.01063
G1 X202.577 Y136.817 E78.02016
G1 X202.849 Y137.069 E78.03304
G1 X202.956 Y137.238 E78.04
G1 X203.028 Y137.416 E78.04667
G1 X203.057 Y137.532 E78.05083
G1 X203.076 Y137.74 E78.05809
G1 X203.076 Y139.74 E78.1276
G1 X203.06 Y139.931 E78.13426
G1 X203.028 Y140.064 E78.13902
G1 X202.956 Y140.242 E78.14569
G1 X202.849 Y140.411 E78.15264
G1 X202.577 Y140.663 E78.16553
G1 X202.314 Y140.74 E78.17505
G1 X202.577 Y140.817 E78.18458
G1 X202.849 Y141.069 E78.19747
G1 X202.956 Y141.238 E78.20442
G1 X203.028 Y141.416 E78.21109
G1 X203.057 Y141.532 E78.21525
G1 X203.076 Y141.74 E78.22251
G1 X203.076 Y143.74 E78.29202
G1 X203.06 Y143.931 E78.29868
G1 X203.028 Y144.064 E78.30344
G1 X202.956 Y144.242 E78.31011
G1 X202.849 Y144.411 E78.31706
G1 X202.577 Y144.663 E78.32995
G1 X202.314 Y144.74 E78.33948
G1 X202.577 Y144.817 E78.349
G1 X202.849 Y145.069 E78.36189
G1 X202.956 Y145.238 E78.36884
G1 X203.028 Y145.416 E78.37551
G1 X203.057 Y145.532 E78.37967
G1 X203.076 Y145.74 E78.38693
G1 X203.076 Y147.74 E78.45644
G1 X203.064 Y147.909 E78.46233
G1 X203.025 Y148.073 E78.46819
G1 X202.964 Y148.224 E78.47385
G1 X202.885 Y148.361 E78.47935
G1 X202.787 Y148.484 E78.48481
G1 X202.665 Y148.598 E78.49062
G1 X202.519 Y148.697 E78.49675
G0 F3600 X202.502 Y149.188
G1 F3000 X202.242 Y149.257 E78.5061
G1 X201.976 Y149.28 E78.51538
G1 X175.976 Y149.28 E79.41906
G1 X175.705 Y149.256 E79.42851
G1 X175.446 Y149.187 E79.43783
G1 X175.211 Y149.077 E79.44685
G1 X175.006 Y148.937 E79.45547
G1 X174.835 Y148.776 E79.46364
G1 X174.699 Y148.602 E79.47131
G1 X174.596 Y148.425 E79.47843
G1 X174.523 Y148.251 E79.48499
G1 X174.474 Y148.084 E79.49104
G1 X174.447 Y147.927 E79.49658
G1 X174.436 Y147.781 E79.50166
G1 X174.439 Y145.644 E79.57594
G1 X174.468 Y145.423 E79.58369
G1 X174.507 Y145.277 E79.58894
G1 X174.556 Y145.143 E79.5939
G1 X174.673 Y144.918 E79.60271
G1 X174.833 Y144.74 E79.61103
G1 X174.673 Y144.562 E79.61935
G1 X174.556 Y144.337 E79.62816
G1 X174.507 Y144.203 E79.63312
G1 X174.468 Y144.057 E79.63838
G1 X174.439 Y143.838 E79.64605
G1 X174.436 Y141.74 E79.71897
G1 X174.448 Y141.543 E79.72583
G1 X174.484 Y141.356 E79.73245
G1 X174.561 Y141.132 E79.74069
G1 X174.681 Y140.906 E79.74958
G1 X174.833 Y140.74 E79.7574
G1 X174.681 Y140.574 E79.76523
G1 X174.561 Y140.348 E79.77412
G1 X174.484 Y140.124 E79.78235
G1 X174.448 Y139.937 E79.78897
G1 X174.436 Y139.74 E79.79583
G1 X174.436 Y137.74 E79.86534
G1 X174.448 Y137.543 E79.8722
G1 X174.484 Y137.356 E79.87882
G1 X174.561 Y137.132 E79.88706
G1 X174.681 Y136.906 E79.89595
G1 X174.833 Y136.74 E79.90377
G1 X174.681 Y136.574 E79.9116
G1 X174.561 Y136.348 E79.92049
G1 X174.484 Y136.124 E79.92872
G1 X174.448 Y135.937 E79.93534
G1 X174.436 Y135.74 E79.9422
G1 X174.437 Y133.676 E80.01394
G1 X174.452 Y133.517 E80.01949
G1 X174.483 Y133.361 E80.02502
G1 X174.535 Y133.196 E80.03103
G1 X174.611 Y133.025 E80.03753
G1 X174.717 Y132.852 E80.04459
G1 X174.854 Y132.684 E80.05212
G1 X175.024 Y132.528 E80.06014
G1 X175.227 Y132.393 E80.06861
G1 X175.459 Y132.289 E80.07745
G1 X175.711 Y132.222 E80.08651
G1 X175.976 Y132.2 E80.09576
G1 X201.976 Y132.2 E80.99943
