;FLAVOR:Marlin
;TIME:1022
;Filament used: 1.9009m
;Layer height: 0.2
;MINX:107.777
;MINY:122.109
;MINZ:0.2
;MAXX:193.367
;MAXY:189.84
;MAXZ:3.8
;TARGET_MACHINE.NAME:VORON2 350
;Generated with Cura_SteamEngine 5.7.0


; Pre-Processed for Cancel-Object support by preprocess_cancellation v0.2.0
; 1 known objects
EXCLUDE_OBJECT_DEFINE NAME=swing_arm_sm_x2_stl CENTER=148.572,150.863 POLYGON=[[107.777,122.109],[107.777,189.84],[193.367,189.84],[193.367,122.109]]
M82 ;absolute extrusion mode
; Script based on an original created by tjjfvi (https://github.com/tjjfvi)
; An up-to-date version of the tjjfvi's original script can be found
; here:  https://csi.t6.fyi/
; Note - This script will only work in Cura V4.2 and above!
; --- Global Settings
; layer_height = 0.2
; smooth_spiralized_contours = True
; magic_mesh_surface_mode = normal
; machine_extruder_count = 1
; --- Single Extruder Settings
; speed_z_hop = 10.0
; retraction_amount = 0.75
; retraction_hop = 0.2
; retraction_hop_enabled = False
; retraction_enable = True
; retraction_speed = 30
; retraction_retract_speed = 30
; retraction_prime_speed = 12
; speed_travel = 300.0
CARTOGRAPHER_MODEL_SELECT NAME="StrucktDbl-Cold"
CARTOGRAPHER_MODEL_LIST
print_start EXTRUDER=245.0 BED=75.0 
; CHAMBER=0
G92 E0
G92 E0
G1 F1800 E-0.75
;LAYER_COUNT:19
;LAYER:0
M107
;MESH:swing_arm_sm_x2.stl
EXCLUDE_OBJECT_START NAME=swing_arm_sm_x2_stl
G0 F18000 X123.313 Y131.222 Z0.2
;TYPE:WALL-INNER
G1 F720 E0
G1 F857.1 X123.466 Y131.058 E0.01316
G1 F921.4 X123.743 Y130.801 E0.03378
G1 F1004 X124.138 Y130.491 E0.05893
G1 F1052.2 X124.386 Y130.325 E0.0732
G1 F1058.8 X130.878 Y126.269 E0.43677
G1 F1043.5 X131.263 Y126.051 E0.45809
G1 F1014.1 X131.432 Y125.969 E0.46741
G1 F1090.9 X132.076 Y125.806 E0.49803
G1 F1200 X132.434 Y125.741 E0.51328
G1 X132.593 Y125.724 E0.51998
G1 X132.945 Y125.71 E0.53474
G1 X133.315 Y125.728 E0.55027
G1 X133.511 Y125.752 E0.55854
G1 X133.697 Y125.787 E0.56647
G1 X134.241 Y125.94 E0.59016
G1 X134.618 Y126.1 E0.60732
G1 X134.972 Y126.296 E0.62428
G1 X135.233 Y126.475 E0.63754
G1 X135.505 Y126.697 E0.65225
G1 X135.717 Y126.902 E0.66461
G1 X135.93 Y127.149 E0.67828
G1 X136.104 Y127.381 E0.69044
G1 X136.347 Y127.785 E0.71019
G1 X136.493 Y128.108 E0.72505
G1 X136.607 Y128.415 E0.73877
G1 F1205.7 X136.675 Y128.685 E0.75038
G1 F1229.3 X136.732 Y128.999 E0.76344
G1 F1299 X136.752 Y129.393 E0.77871
G1 F1380.8 X136.743 Y129.78 E0.79281
G1 F1407.8 X136.606 Y132.012 E0.87269
G1 F1388.4 X136.559 Y132.448 E0.88858
G1 F1329.8 X136.513 Y132.727 E0.89927
G1 F1253.7 X136.431 Y133.038 E0.91217
G1 F1208.6 X136.384 Y133.172 E0.91808
G1 F1200 X136.246 Y133.493 E0.93272
G1 X136.147 Y133.689 E0.94192
G1 X135.932 Y134.028 E0.95875
G1 X135.702 Y134.32 E0.97432
G1 X135.478 Y134.557 E0.98799
G1 X135.211 Y134.795 E1.00298
G1 X134.951 Y134.991 E1.01662
G1 X134.789 Y135.096 E1.02472
G1 X134.462 Y135.272 E1.04028
G1 X134.193 Y135.39 E1.05259
G1 X133.814 Y135.517 E1.06934
G1 X133.075 Y135.697 E1.10121
G1 X132.64 Y135.846 E1.12048
G1 X132.221 Y136.027 E1.13961
G1 X131.842 Y136.237 E1.15777
G1 X131.449 Y136.503 E1.17766
G1 X131.114 Y136.777 E1.19579
G1 X130.769 Y137.117 E1.21609
G1 X131.215 Y136.94 E1.2362
G1 X131.645 Y136.81 E1.25503
G1 X131.79 Y136.775 E1.26128
G1 X132.305 Y136.684 E1.2832
G1 X132.685 Y136.648 E1.29919
G1 X133.338 Y136.643 E1.32656
G1 X133.854 Y136.695 E1.34829
G1 X134.236 Y136.766 E1.36458
G1 X138.679 Y137.79 E1.55565
G1 F1142.9 X139.056 Y137.856 E1.5725
G1 F1127.5 X139.707 Y138.021 E1.60245
G1 F1166.7 X152.919 Y141.069 E2.18691
G1 F1156 X153.059 Y141.109 E2.19325
G1 F1172.1 X153.528 Y141.334 E2.21557
G1 F1200 X155.221 Y142.108 E2.29358
G1 X157.215 Y143.115 E2.38719
G1 X157.33 Y143.181 E2.39275
G1 X157.466 Y143.275 E2.39968
G1 F1197.1 X158.356 Y143.981 E2.4474
G1 F1112.6 X158.67 Y144.19 E2.46445
G1 F1074.6 X159.161 Y144.598 E2.49433
G1 F1098 X174.805 Y156.999 E3.40861
G1 F1056.6 X175.156 Y157.259 E3.4294
G1 F1107.7 X175.466 Y157.55 E3.44871
G1 F1200 X185.917 Y165.837 E4.00766
G1 X186.168 Y166.004 E4.0203
G1 X186.278 Y166.055 E4.02538
G1 X186.461 Y166.119 E4.0335
G1 X186.789 Y166.164 E4.04738
G1 X187.031 Y166.144 E4.05756
G1 X187.272 Y166.083 E4.06797
G1 X187.496 Y165.979 E4.07832
G1 X187.723 Y165.817 E4.09001
G1 X188.841 Y164.769 E4.15423
G1 X189.088 Y164.505 E4.16938
G1 F1006 X189.301 Y164.156 E4.18982
G1 F882.7 X189.837 Y163.596 E4.23399
G1 F872 X190.374 Y162.897 E4.28482
G1 F954.5 X190.619 Y162.701 E4.30135
G1 F1145.5 X190.745 Y162.575 E4.30917
G1 F1200 X190.861 Y162.427 E4.31706
G1 X191.721 Y161.188 E4.38026
G1 X191.793 Y161.062 E4.38634
G1 X191.891 Y160.828 E4.39697
G1 X191.937 Y160.581 E4.4075
G1 X191.949 Y160.458 E4.41268
G1 X191.934 Y160.231 E4.42222
G1 X191.876 Y159.997 E4.43232
G1 X191.773 Y159.756 E4.4433
G1 X191.63 Y159.551 E4.45378
G1 X191.56 Y159.473 E4.45817
G1 X181.795 Y150.319 E5.01909
G1 F1185.9 X181.643 Y150.185 E5.02769
G1 F1079.2 X181.368 Y149.977 E5.04375
G1 F1026.5 X181.086 Y149.696 E5.06326
G1 F1056.6 X166.302 Y135.836 E6.02777
G1 F1024.4 X165.845 Y135.43 E6.05778
G1 F1067.8 X165.637 Y135.186 E6.07288
G1 F1177.6 X165.492 Y135.039 E6.0817
G1 F1200 X162.571 Y132.3 E6.24951
G1 X161.508 Y131.377 E6.30851
G1 X160.385 Y130.538 E6.36725
G1 F1177.6 X159.777 Y130.163 E6.39776
G1 F1050 X159.469 Y130.021 E6.41401
G1 F982.5 X159.215 Y129.846 E6.42979
G1 F1041.3 X158.517 Y129.454 E6.46846
G1 F1063.3 X157.986 Y129.179 E6.49674
G1 F1061.1 X157.113 Y128.788 E6.54207
G1 F1058.8 X156.73 Y128.626 E6.56183
G1 F1052.2 X155.442 Y128.17 E6.62713
G1 F1061.1 X154.079 Y127.801 E6.69406
G1 F1056.6 X141.691 Y124.942 E7.29916
G1 F1022.3 X141.237 Y124.853 E7.32192
G1 F1086.2 X140.81 Y124.709 E7.34278
G1 F1200 X136.089 Y123.62 E7.54583
G1 X135.765 Y123.557 E7.55966
G1 X135.471 Y123.53 E7.57203
G1 X135.185 Y123.528 E7.58402
G1 X134.87 Y123.553 E7.59726
G1 X134.558 Y123.603 E7.6105
G1 X134.28 Y123.678 E7.62257
G1 X134.039 Y123.768 E7.63335
G1 X133.759 Y123.896 E7.64625
G1 X133.432 Y124.08 E7.66198
G1 F1188.7 X131.478 Y125.307 E7.75959
G1 F1081.5 X131.198 Y125.526 E7.77612
G1 F1028.6 X130.697 Y125.823 E7.8046
G1 F1058.8 X124.135 Y129.923 E8.1721
G1 F1022.3 X123.514 Y130.331 E8.20865
G1 F943.8 X123.164 Y130.579 E8.2315
G1 F867.5 X122.886 Y130.801 E8.25213
G1 F931.6 X122.64 Y130.922 E8.26693
G1 F1102.8 X122.532 Y130.994 E8.27284
G1 F1180.3 X122.391 Y131.123 E8.28099
G1 F1200 X122.213 Y131.332 E8.29249
G1 X122.034 Y131.583 E8.30541
G1 X121.899 Y131.813 E8.31659
G1 X121.758 Y132.103 E8.3301
G1 X121.657 Y132.37 E8.34206
G1 X121.563 Y132.718 E8.35717
G1 X110.048 Y182.591 E10.50222
G1 X110.181 Y182.443 E10.51056
G1 X110.457 Y182.186 E10.52637
G1 X110.711 Y181.992 E10.53976
G1 X110.997 Y181.811 E10.55395
G1 X111.141 Y181.735 E10.56077
G1 X111.449 Y181.598 E10.5749
G1 X111.762 Y181.49 E10.58877
G1 X112.111 Y181.409 E10.60379
G1 X112.277 Y181.384 E10.61082
G1 X112.593 Y181.358 E10.62411
G1 X112.921 Y181.359 E10.63786
G1 X113.157 Y181.379 E10.64778
G1 X113.369 Y181.412 E10.65677
G1 X113.847 Y181.532 E10.67743
G1 X114.147 Y181.646 E10.69088
G1 X114.331 Y181.73 E10.69935
G1 X114.497 Y181.82 E10.70727
G1 X114.752 Y181.981 E10.7199
G1 X115.047 Y182.205 E10.73543
G1 X115.286 Y182.431 E10.74921
G1 X115.49 Y182.662 E10.76213
G1 X115.689 Y182.931 E10.77615
G1 X115.854 Y183.203 E10.78948
G1 X115.996 Y183.488 E10.80283
G1 X116.122 Y183.82 E10.81771
G1 X116.211 Y184.17 E10.83284
G1 X116.251 Y184.414 E10.8432
G1 X116.28 Y184.68 E10.85442
G1 X116.287 Y184.984 E10.86716
G1 X116.265 Y185.293 E10.88014
G1 X116.179 Y185.799 E10.90165
G1 X116.643 Y185.231 E10.93239
G1 X117.016 Y184.683 E10.96017
G1 X117.353 Y184.078 E10.98919
G1 X117.645 Y183.452 E11.01814
G1 X117.877 Y182.819 E11.04639
G1 X118.071 Y182.093 E11.07789
G1 X127.563 Y140.989 E12.8458
G1 X127.697 Y140.502 E12.86696
G1 X127.866 Y140.06 E12.88679
G1 X128.137 Y139.51 E12.91249
G1 X128.401 Y139.081 E12.9336
G1 X128.743 Y138.631 E12.95729
G1 X129.071 Y138.277 E12.97751
G1 X129.282 Y138.081 E12.98958
G1 X129.015 Y138.173 E13.00141
G1 X128.698 Y138.245 E13.01504
G1 X128.386 Y138.291 E13.02825
G1 X128.007 Y138.31 E13.04416
G1 X127.731 Y138.301 E13.05573
G1 X127.397 Y138.268 E13.0698
G1 X127.084 Y138.208 E13.08315
G1 X126.693 Y138.09 E13.10027
G1 X126.38 Y137.956 E13.11454
G1 X126.122 Y137.831 E13.12655
G1 X124.562 Y136.96 E13.20143
G1 X124.197 Y136.724 E13.21964
G1 X123.919 Y136.502 E13.23455
G1 X123.751 Y136.346 E13.24416
G1 X123.53 Y136.112 E13.25765
G1 X123.283 Y135.791 E13.27462
G1 X123.039 Y135.387 E13.2944
G1 X122.879 Y135.039 E13.31045
G1 X122.765 Y134.707 E13.32516
G1 X122.658 Y134.263 E13.3443
G1 X122.622 Y133.995 E13.35563
G1 X122.602 Y133.641 E13.37049
G1 X122.608 Y133.398 E13.38068
G1 X122.644 Y133.065 E13.39472
G1 X122.718 Y132.668 E13.41164
G1 X122.847 Y132.255 E13.42977
G1 X122.986 Y131.923 E13.44486
G1 F1180.3 X123.191 Y131.546 E13.46314
G1 F971.1 X123.313 Y131.222 E13.48107
G1 F1800 E12.73107
G0 F18000 X123.256 Y133.981
G0 X123.487 Y134.858
G0 X123.964 Y135.65
G0 X124.617 Y136.25
G0 X126.662 Y137.399
G0 X127.478 Y137.644
G0 X127.72 Y137.65
G0 X129.489 Y137.626
G1 F720 E13.48107
G1 F969.2 X129.267 Y137.665 E13.49276
G1 F1130 X128.915 Y137.765 E13.50905
G1 F1200 X128.632 Y137.83 E13.52122
G1 X128.344 Y137.873 E13.53342
G1 X128.103 Y137.889 E13.54354
G1 X127.768 Y137.883 E13.55758
G1 X127.464 Y137.853 E13.57039
G1 X127.174 Y137.798 E13.58276
G1 X126.894 Y137.715 E13.59499
G1 X126.576 Y137.585 E13.60939
G1 X126.573 Y137.576 E13.60979
G1 X126.299 Y137.449 E13.62245
G1 X124.719 Y136.565 E13.69832
G1 X124.536 Y136.449 E13.7074
G1 X124.205 Y136.194 E13.72491
G1 X123.979 Y135.98 E13.73795
G1 X123.765 Y135.738 E13.75149
G1 X123.621 Y135.542 E13.76168
G1 X123.417 Y135.204 E13.77823
G1 X123.274 Y134.895 E13.7925
G1 X123.171 Y134.601 E13.80555
G1 X123.073 Y134.2 E13.82285
G1 X123.04 Y133.963 E13.83288
G1 X123.022 Y133.65 E13.84602
G1 X123.027 Y133.42 E13.85566
G1 X123.061 Y133.114 E13.86856
G1 X123.146 Y132.695 E13.88648
G1 X123.24 Y132.403 E13.89934
G1 X123.365 Y132.105 E13.91288
G1 X123.545 Y131.784 E13.9283
G1 X123.716 Y131.539 E13.94082
G1 X123.916 Y131.298 E13.95395
G1 X124.13 Y131.082 E13.96669
G1 X124.396 Y130.862 E13.98116
G1 X124.623 Y130.705 E13.99272
G1 X131.115 Y126.649 E14.31352
G1 X131.447 Y126.467 E14.32939
G1 X131.7 Y126.359 E14.34092
G1 X131.895 Y126.291 E14.34957
G1 X132.183 Y126.212 E14.36209
G1 X132.615 Y126.143 E14.38042
G1 X132.931 Y126.13 E14.39367
G1 X133.264 Y126.145 E14.40764
G1 X133.593 Y126.194 E14.42158
G1 X134.099 Y126.335 E14.4436
G1 X134.444 Y126.483 E14.45933
G1 X134.665 Y126.601 E14.46983
G1 X134.907 Y126.757 E14.48189
G1 X135.216 Y127.002 E14.49842
G1 X135.453 Y127.236 E14.51238
G1 X135.657 Y127.48 E14.52571
G1 X135.823 Y127.717 E14.53783
G1 X135.947 Y127.929 E14.54812
G1 X136.101 Y128.259 E14.56339
G1 X136.205 Y128.537 E14.57582
G1 X136.271 Y128.788 E14.5867
G1 X136.334 Y129.117 E14.60074
G1 X136.357 Y129.416 E14.61331
G1 X136.353 Y129.757 E14.6276
G1 X136.218 Y131.988 E14.72127
G1 X136.171 Y132.371 E14.73744
G1 X136.119 Y132.632 E14.74859
G1 X136.032 Y132.915 E14.761
G1 X135.872 Y133.302 E14.77855
G1 X135.773 Y133.498 E14.78775
G1 X135.532 Y133.864 E14.80611
G1 X135.377 Y134.054 E14.81639
G1 X135.177 Y134.264 E14.82854
G1 X134.944 Y134.471 E14.8416
G1 X134.7 Y134.654 E14.85439
G1 X134.584 Y134.729 E14.86018
G1 X134.291 Y134.888 E14.87415
G1 X134.037 Y135 E14.88578
G1 X133.81 Y135.081 E14.89588
G1 X132.958 Y135.294 E14.93268
G1 X132.488 Y135.453 E14.95348
G1 X132.035 Y135.65 E14.97418
G1 X131.622 Y135.879 E14.99397
G1 X131.185 Y136.177 E15.01614
G1 X130.837 Y136.46 E15.03493
G1 F1194.3 X130.413 Y136.883 E15.06015
G1 F1063.3 X130.267 Y137.086 E15.07198
G1 F928.2 X130.198 Y137.167 E15.07774
G1 F913 X129.829 Y137.424 E15.10251
G1 F908.1 X129.489 Y137.626 E15.12441
G0 F18000 X128.041 Y137.743
G0 X128.047 Y137.47
G1 F1200 X127.804 Y137.464 E15.1346
G1 X127.514 Y137.435 E15.14681
G1 X127.264 Y137.388 E15.15747
G1 X126.987 Y137.303 E15.16962
G1 X126.773 Y137.213 E15.17935
G1 X126.77 Y137.203 E15.17978
G1 X126.54 Y137.101 E15.19033
G1 X124.943 Y136.209 E15.26699
G1 X124.71 Y136.059 E15.2786
G1 X124.534 Y135.923 E15.28792
G1 X124.288 Y135.695 E15.30198
G1 X124.104 Y135.489 E15.31355
G1 X123.928 Y135.246 E15.32613
G1 X123.796 Y135.022 E15.33702
G1 X123.668 Y134.75 E15.34962
G1 X123.578 Y134.495 E15.36095
G1 X123.488 Y134.138 E15.37638
G1 X123.459 Y133.932 E15.3851
G1 X123.442 Y133.659 E15.39656
G1 X123.446 Y133.442 E15.40566
G1 X123.489 Y133.094 E15.42035
G1 X123.535 Y132.864 E15.43018
G1 X123.634 Y132.55 E15.44398
G1 X123.744 Y132.287 E15.45593
G1 X123.893 Y132.019 E15.46878
G1 X124.009 Y131.847 E15.47747
G1 X124.201 Y131.608 E15.49032
G1 X124.381 Y131.423 E15.50114
G1 X124.636 Y131.206 E15.51517
G1 X124.846 Y131.061 E15.52586
G1 X131.338 Y127.005 E15.84666
G1 X131.617 Y126.851 E15.86002
G1 X131.837 Y126.756 E15.87006
G1 X132.079 Y126.674 E15.88077
G1 X132.291 Y126.618 E15.88996
G1 X132.638 Y126.562 E15.90469
G1 X132.862 Y126.55 E15.91409
G1 X133.213 Y126.562 E15.92881
G1 X133.489 Y126.601 E15.94049
G1 X133.957 Y126.73 E15.96083
G1 X134.198 Y126.831 E15.97178
G1 X134.462 Y126.968 E15.98425
G1 X134.714 Y127.136 E15.99694
G1 X134.882 Y127.268 E16.00589
G1 X135.109 Y127.481 E16.01894
G1 X135.317 Y127.728 E16.03247
G1 X135.46 Y127.929 E16.04281
G1 X135.614 Y128.199 E16.05584
G1 X135.709 Y128.409 E16.0655
G1 X135.811 Y128.688 E16.07794
G1 X135.872 Y128.93 E16.0884
G1 X135.919 Y129.182 E16.09915
G1 X135.938 Y129.442 E16.11007
G1 X135.934 Y129.731 E16.12218
G1 X135.795 Y131.998 E16.21737
G1 X135.759 Y132.288 E16.22961
G1 X135.71 Y132.533 E16.24008
G1 X135.61 Y132.848 E16.25393
G1 X135.498 Y133.111 E16.26591
G1 X135.393 Y133.316 E16.27557
G1 X135.233 Y133.562 E16.28786
G1 X135.052 Y133.788 E16.3
G1 X134.876 Y133.972 E16.31067
G1 X134.677 Y134.147 E16.32178
G1 X134.449 Y134.318 E16.33372
G1 X134.171 Y134.479 E16.34718
G1 X133.882 Y134.61 E16.36048
G1 X133.614 Y134.701 E16.37234
G1 X132.841 Y134.89 E16.40569
G1 X132.336 Y135.061 E16.42803
G1 X131.848 Y135.274 E16.45035
G1 X131.402 Y135.521 E16.47171
G1 X130.956 Y135.823 E16.49429
G1 X130.557 Y136.147 E16.51583
G1 X129.972 Y136.719 E16.55011
G1 X129.785 Y136.869 E16.56016
G1 X129.557 Y137.027 E16.57179
G1 X129.264 Y137.186 E16.58576
G1 X128.815 Y137.357 E16.60589
G1 X128.567 Y137.415 E16.61656
G1 X128.278 Y137.457 E16.6288
G1 X128.047 Y137.47 E16.6385
G1 F1800 E15.8885
G0 F18000 X128.041 Y137.743
G0 X132.782 Y137.273
G0 X133.716 Y137.311
G0 X153.749 Y140.11
G0 X156.048 Y140.081
G1 F720 E16.6385
G1 F1200 X155.664 Y140.305 E16.65713
G1 X155.315 Y140.466 E16.67324
G1 X155.054 Y140.558 E16.68483
G1 X154.693 Y140.657 E16.70052
G1 X154.31 Y140.719 E16.71678
G1 X154.077 Y140.735 E16.72657
G1 X153.788 Y140.738 E16.73868
G1 F1194.3 X153.46 Y140.721 E16.75251
G1 F1166.7 X153.178 Y140.685 E16.76476
G1 F1153.3 X139.73 Y137.581 E17.36657
G1 X139.505 Y137.52 E17.37673
G1 F1120 X139.19 Y137.416 E17.39163
G1 F1145.5 X138.715 Y137.159 E17.41534
G1 F1200 X138.471 Y137.003 E17.42748
G1 X138.299 Y136.874 E17.43649
G1 X138.023 Y136.634 E17.45181
G1 X137.897 Y136.51 E17.45922
G1 X137.656 Y136.234 E17.47458
G1 X137.516 Y136.046 E17.4844
G1 X137.267 Y135.64 E17.50436
G1 X137.13 Y135.353 E17.51769
G1 X136.984 Y134.948 E17.53573
G1 X136.904 Y134.625 E17.54968
G1 X136.844 Y134.259 E17.56522
G1 X136.822 Y133.858 E17.58205
G1 X136.827 Y133.645 E17.59098
G1 F1208.6 X136.862 Y133.117 E17.613
G1 F1305.7 X136.954 Y132.123 E17.65144
G1 F1384.6 X137.122 Y129.393 E17.75078
G1 F1299 X137.133 Y128.982 E17.7667
G1 F1223.3 X137.168 Y128.614 E17.7819
G1 F1202.9 X137.234 Y128.28 E17.79613
G1 F1200 X137.324 Y127.985 E17.80906
G1 X137.454 Y127.662 E17.82365
G1 X137.646 Y127.29 E17.84119
G1 X137.795 Y127.053 E17.85292
G1 X138.044 Y126.729 E17.87005
G1 X138.327 Y126.437 E17.88709
G1 X138.549 Y126.244 E17.89942
G1 X138.725 Y126.108 E17.90874
G1 X138.871 Y126.009 E17.91613
G1 X139.164 Y125.84 E17.93031
G1 X139.369 Y125.739 E17.93988
G1 X139.652 Y125.62 E17.95275
G1 X139.807 Y125.568 E17.9596
G1 X140.128 Y125.483 E17.97352
G1 X140.545 Y125.413 E17.99124
G1 F1086.2 X141.163 Y125.353 E18.01998
